ncols 72
nrows 221
xllcorner 42
yllcorner -8
cellsize 1
NODATA_value -9999
52.949 53.036 53.140 53.229 53.322 53.402 53.489 53.574 53.649 53.726 53.799 53.880 53.973 54.065 54.135 54.201 54.285 54.347 54.410 54.483 54.547 54.602 54.655 54.726 54.801 54.879 54.976 55.080 55.163 55.226 55.267 55.287 55.292 55.296 55.299 55.299 55.293 55.294 55.301 55.325 55.341 55.345 55.352 55.381 55.427 55.487 55.550 55.614 55.676 55.727 55.764 55.777 55.736 55.603 55.394 55.263 54.999 54.686 54.523 54.608 54.814 55.173 55.613 56.139 56.610 56.994 57.450 57.802 58.018 58.170 58.274 58.324
52.975 53.033 53.124 53.210 53.313 53.412 53.502 53.589 53.671 53.752 53.833 53.928 54.028 54.109 54.174 54.239 54.314 54.382 54.450 54.516 54.574 54.620 54.668 54.740 54.817 54.902 54.991 55.090 55.174 55.235 55.285 55.302 55.308 55.315 55.317 55.312 55.305 55.310 55.320 55.348 55.364 55.371 55.374 55.421 55.461 55.511 55.567 55.634 55.703 55.769 55.800 55.820 55.804 55.622 55.328 55.216 55.003 54.623 54.416 54.443 54.629 54.997 55.457 56.032 56.562 56.981 57.425 57.795 58.043 58.220 58.322 58.395
53.004 53.045 53.127 53.217 53.314 53.424 53.522 53.606 53.702 53.778 53.856 53.962 54.061 54.140 54.208 54.275 54.343 54.403 54.466 54.532 54.599 54.643 54.700 54.772 54.844 54.919 55.003 55.087 55.170 55.239 55.301 55.320 55.325 55.327 55.336 55.329 55.323 55.321 55.332 55.363 55.377 55.396 55.420 55.451 55.491 55.528 55.577 55.641 55.703 55.791 55.829 55.847 55.820 55.645 55.383 55.198 54.975 54.580 54.344 54.379 54.564 54.950 55.429 55.976 56.506 56.933 57.353 57.722 58.014 58.218 58.337 58.435
53.036 53.071 53.120 53.219 53.322 53.421 53.530 53.613 53.713 53.799 53.876 53.976 54.080 54.163 54.235 54.293 54.353 54.413 54.478 54.533 54.593 54.658 54.737 54.806 54.873 54.935 55.011 55.083 55.164 55.241 55.314 55.337 55.338 55.337 55.331 55.329 55.327 55.328 55.342 55.367 55.394 55.410 55.442 55.465 55.505 55.542 55.589 55.649 55.727 55.804 55.852 55.881 55.874 55.758 55.547 55.295 55.002 54.614 54.332 54.367 54.579 54.977 55.481 55.991 56.514 56.952 57.348 57.689 57.966 58.192 58.341 58.446
53.072 53.097 53.125 53.214 53.319 53.408 53.515 53.609 53.707 53.801 53.876 53.979 54.081 54.165 54.238 54.300 54.360 54.425 54.481 54.538 54.606 54.673 54.758 54.818 54.891 54.957 55.018 55.082 55.164 55.240 55.315 55.344 55.345 55.346 55.343 55.344 55.341 55.337 55.352 55.374 55.400 55.425 55.461 55.485 55.520 55.555 55.601 55.665 55.747 55.819 55.875 55.914 55.936 55.881 55.709 55.418 55.057 54.680 54.399 54.374 54.600 55.003 55.532 56.053 56.539 56.974 57.358 57.690 57.964 58.180 58.333 58.445
53.097 53.122 53.149 53.204 53.318 53.409 53.502 53.602 53.711 53.805 53.879 53.971 54.071 54.158 54.239 54.311 54.377 54.432 54.484 54.551 54.621 54.690 54.760 54.816 54.889 54.954 55.015 55.078 55.165 55.238 55.302 55.334 55.341 55.350 55.350 55.353 55.350 55.341 55.352 55.379 55.399 55.423 55.470 55.516 55.543 55.572 55.617 55.674 55.750 55.828 55.893 55.948 55.987 55.959 55.803 55.513 55.137 54.763 54.452 54.383 54.608 55.010 55.557 56.083 56.547 56.969 57.327 57.657 57.929 58.148 58.307 58.435
53.105 53.142 53.181 53.226 53.313 53.416 53.497 53.589 53.704 53.808 53.890 53.978 54.065 54.152 54.249 54.322 54.380 54.437 54.502 54.568 54.632 54.694 54.746 54.796 54.854 54.915 54.989 55.067 55.138 55.196 55.251 55.286 55.300 55.313 55.318 55.326 55.337 55.328 55.333 55.366 55.401 55.431 55.478 55.539 55.570 55.601 55.646 55.695 55.768 55.848 55.907 55.985 56.037 56.014 55.859 55.568 55.154 54.721 54.453 54.385 54.633 55.027 55.558 56.078 56.540 56.965 57.316 57.623 57.887 58.097 58.264 58.418
53.116 53.170 53.206 53.236 53.301 53.399 53.489 53.580 53.694 53.799 53.885 53.969 54.053 54.152 54.252 54.322 54.378 54.447 54.517 54.578 54.628 54.670 54.708 54.741 54.780 54.826 54.879 54.958 55.045 55.122 55.193 55.245 55.274 55.288 55.284 55.295 55.314 55.322 55.336 55.357 55.386 55.425 55.481 55.525 55.573 55.627 55.670 55.716 55.787 55.859 55.937 56.020 56.087 56.066 55.924 55.622 55.151 54.665 54.463 54.407 54.669 55.070 55.561 56.078 56.549 56.967 57.322 57.599 57.853 58.039 58.209 58.403
53.128 53.183 53.227 53.265 53.309 53.388 53.486 53.580 53.686 53.788 53.879 53.963 54.045 54.133 54.226 54.314 54.384 54.447 54.506 54.551 54.588 54.624 54.650 54.655 54.674 54.714 54.773 54.874 54.987 55.087 55.177 55.238 55.267 55.281 55.284 55.310 55.346 55.361 55.377 55.378 55.398 55.417 55.449 55.493 55.547 55.613 55.661 55.717 55.786 55.870 55.954 56.038 56.111 56.078 55.947 55.685 55.154 54.679 54.447 54.391 54.601 55.054 55.544 56.091 56.559 57.028 57.336 57.572 57.807 57.981 58.148 58.348
53.136 53.195 53.245 53.283 53.321 53.381 53.478 53.573 53.682 53.785 53.875 53.964 54.029 54.110 54.199 54.292 54.365 54.434 54.486 54.517 54.547 54.563 54.574 54.562 54.571 54.630 54.725 54.840 54.967 55.103 55.234 55.321 55.345 55.381 55.415 55.452 55.462 55.474 55.498 55.481 55.456 55.442 55.464 55.496 55.520 55.573 55.619 55.667 55.758 55.883 55.979 56.058 56.141 56.113 56.017 55.596 55.099 54.701 54.440 54.397 54.543 54.950 55.498 56.064 56.571 57.020 57.318 57.544 57.719 57.902 58.075 58.221
53.149 53.198 53.254 53.307 53.344 53.381 53.460 53.555 53.673 53.778 53.863 53.957 54.010 54.089 54.179 54.261 54.329 54.396 54.447 54.471 54.485 54.488 54.491 54.482 54.508 54.587 54.700 54.834 55.028 55.226 55.392 55.483 55.508 55.554 55.582 55.594 55.608 55.613 55.635 55.613 55.568 55.522 55.501 55.527 55.538 55.573 55.608 55.644 55.724 55.852 55.961 56.054 56.138 56.204 56.206 55.770 55.131 54.713 54.509 54.427 54.527 54.892 55.433 56.011 56.548 56.953 57.239 57.466 57.621 57.780 57.951 58.085
53.177 53.210 53.261 53.313 53.353 53.377 53.435 53.536 53.643 53.752 53.839 53.938 54.003 54.074 54.168 54.235 54.295 54.349 54.386 54.414 54.431 54.419 54.416 54.431 54.495 54.581 54.740 54.944 55.176 55.393 55.532 55.586 55.604 55.612 55.626 55.640 55.647 55.668 55.669 55.668 55.636 55.592 55.557 55.544 55.563 55.589 55.627 55.660 55.717 55.825 55.937 56.055 56.151 56.194 56.295 55.948 55.216 54.723 54.511 54.424 54.528 54.865 55.365 55.937 56.452 56.836 57.174 57.401 57.534 57.659 57.799 57.932
53.215 53.226 53.271 53.336 53.366 53.391 53.426 53.520 53.603 53.711 53.802 53.893 53.980 54.050 54.144 54.214 54.267 54.309 54.342 54.371 54.362 54.353 54.373 54.421 54.501 54.653 54.890 55.107 55.316 55.496 55.592 55.623 55.639 55.637 55.642 55.658 55.662 55.666 55.673 55.673 55.659 55.645 55.613 55.583 55.589 55.611 55.641 55.672 55.719 55.813 55.934 56.076 56.211 56.167 56.077 55.807 55.253 54.735 54.511 54.430 54.521 54.842 55.307 55.833 56.328 56.723 57.082 57.361 57.514 57.624 57.731 57.853
53.253 53.246 53.285 53.332 53.384 53.408 53.429 53.508 53.564 53.651 53.753 53.855 53.951 54.029 54.112 54.187 54.239 54.269 54.283 54.295 54.288 54.317 54.368 54.447 54.588 54.795 55.048 55.265 55.435 55.568 55.625 55.640 55.644 55.642 55.654 55.667 55.666 55.665 55.666 55.668 55.667 55.666 55.635 55.607 55.619 55.641 55.659 55.675 55.717 55.815 55.940 56.082 56.174 56.121 55.904 55.604 55.163 54.705 54.490 54.426 54.506 54.802 55.248 55.751 56.243 56.658 57.014 57.324 57.507 57.621 57.723 57.835
53.279 53.277 53.295 53.347 53.387 53.422 53.446 53.501 53.548 53.639 53.742 53.830 53.921 54.001 54.069 54.128 54.159 54.169 54.180 54.199 54.258 54.322 54.395 54.521 54.738 54.971 55.187 55.378 55.525 55.625 55.650 55.650 55.651 55.649 55.657 55.661 55.661 55.660 55.660 55.664 55.665 55.663 55.646 55.630 55.643 55.659 55.676 55.690 55.721 55.813 55.932 56.062 56.173 56.156 56.017 55.677 55.186 54.780 54.589 54.467 54.498 54.757 55.183 55.687 56.193 56.686 57.058 57.330 57.494 57.612 57.713 57.821
53.299 53.313 53.325 53.362 53.400 53.438 53.469 53.503 53.561 53.654 53.750 53.826 53.893 53.945 53.994 54.034 54.056 54.089 54.130 54.194 54.273 54.348 54.468 54.661 54.902 55.126 55.310 55.490 55.597 55.662 55.668 55.665 55.668 55.664 55.670 55.676 55.671 55.671 55.676 55.678 55.673 55.674 55.657 55.648 55.665 55.671 55.684 55.701 55.729 55.809 55.922 56.031 56.162 56.229 56.176 55.766 55.252 54.811 54.601 54.515 54.492 54.718 55.122 55.621 56.135 56.767 57.318 57.389 57.514 57.608 57.712 57.818
53.321 53.339 53.348 53.370 53.415 53.461 53.493 53.515 53.562 53.642 53.725 53.785 53.826 53.872 53.915 53.963 54.008 54.061 54.118 54.202 54.314 54.445 54.635 54.854 55.063 55.252 55.404 55.555 55.653 55.691 55.690 55.683 55.690 55.685 55.683 55.688 55.684 55.689 55.694 55.694 55.677 55.679 55.665 55.659 55.683 55.681 55.691 55.705 55.738 55.813 55.917 56.030 56.131 56.216 56.225 55.777 55.297 54.841 54.606 54.501 54.486 54.662 55.069 55.553 56.085 56.700 57.240 57.394 57.502 57.621 57.736 57.876
53.340 53.350 53.376 53.393 53.427 53.471 53.503 53.529 53.560 53.613 53.679 53.729 53.779 53.843 53.894 53.953 54.007 54.068 54.168 54.296 54.464 54.650 54.831 55.011 55.182 55.343 55.459 55.590 55.673 55.711 55.710 55.698 55.705 55.704 55.701 55.700 55.701 55.710 55.713 55.707 55.685 55.691 55.684 55.678 55.691 55.688 55.700 55.708 55.749 55.819 55.959 56.089 56.156 56.229 56.161 55.787 55.335 54.912 54.652 54.526 54.507 54.628 55.020 55.483 55.976 56.464 56.825 57.187 57.467 57.636 57.778 57.941
53.343 53.356 53.399 53.413 53.433 53.484 53.526 53.555 53.574 53.610 53.661 53.721 53.786 53.860 53.931 54.001 54.058 54.138 54.310 54.466 54.621 54.801 54.948 55.109 55.266 55.412 55.513 55.621 55.701 55.722 55.721 55.716 55.724 55.718 55.720 55.715 55.718 55.726 55.727 55.722 55.702 55.705 55.699 55.702 55.702 55.697 55.704 55.710 55.788 55.926 56.059 56.178 56.241 56.250 56.152 55.872 55.456 54.989 54.673 54.566 54.538 54.610 54.942 55.385 55.849 56.321 56.757 57.122 57.433 57.638 57.798 57.971
53.324 53.332 53.369 53.390 53.443 53.484 53.542 53.575 53.595 53.615 53.657 53.730 53.840 53.928 54.024 54.105 54.177 54.262 54.421 54.578 54.725 54.883 55.033 55.180 55.321 55.446 55.553 55.641 55.709 55.736 55.732 55.729 55.735 55.731 55.736 55.741 55.736 55.736 55.737 55.738 55.723 55.720 55.722 55.712 55.711 55.708 55.716 55.722 55.815 55.964 56.077 56.175 56.255 56.259 56.235 56.003 55.565 55.036 54.675 54.566 54.536 54.600 54.864 55.252 55.696 56.197 56.676 57.031 57.339 57.575 57.754 57.939
53.274 53.294 53.342 53.396 53.442 53.495 53.548 53.596 53.621 53.638 53.698 53.850 53.966 54.065 54.126 54.200 54.286 54.379 54.510 54.656 54.797 54.949 55.089 55.229 55.365 55.480 55.575 55.653 55.718 55.753 55.748 55.744 55.750 55.752 55.757 55.757 55.756 55.756 55.755 55.756 55.743 55.731 55.728 55.723 55.726 55.728 55.735 55.748 55.847 55.993 56.101 56.205 56.250 56.212 56.136 55.989 55.668 55.149 54.730 54.582 54.555 54.585 54.776 55.120 55.581 56.114 56.584 56.917 57.185 57.439 57.647 57.846
53.238 53.288 53.350 53.416 53.467 53.509 53.562 53.614 53.644 53.661 53.715 53.871 54.018 54.111 54.172 54.249 54.345 54.449 54.561 54.698 54.838 54.984 55.119 55.257 55.387 55.497 55.588 55.661 55.723 55.760 55.760 55.759 55.764 55.765 55.764 55.765 55.770 55.771 55.768 55.768 55.760 55.749 55.741 55.745 55.753 55.753 55.757 55.775 55.884 56.038 56.121 56.208 56.208 56.047 55.879 55.749 55.566 55.214 54.775 54.572 54.555 54.551 54.690 55.056 55.537 56.040 56.469 56.801 57.053 57.296 57.535 57.768
53.269 53.326 53.395 53.484 53.526 53.531 53.569 53.620 53.656 53.682 53.723 53.854 54.018 54.122 54.191 54.271 54.362 54.460 54.573 54.688 54.822 54.980 55.121 55.252 55.382 55.499 55.596 55.668 55.726 55.765 55.772 55.770 55.770 55.771 55.776 55.781 55.786 55.787 55.778 55.779 55.775 55.764 55.757 55.757 55.768 55.770 55.778 55.836 55.954 56.073 56.145 56.210 56.254 56.108 55.868 55.642 55.436 55.175 54.847 54.619 54.549 54.529 54.669 55.034 55.518 55.994 56.428 56.710 56.924 57.184 57.427 57.682
53.321 53.366 53.426 53.501 53.554 53.559 53.573 53.624 53.667 53.704 53.735 53.815 53.963 54.097 54.188 54.273 54.357 54.443 54.545 54.655 54.787 54.946 55.096 55.228 55.368 55.502 55.611 55.693 55.742 55.784 55.789 55.784 55.783 55.781 55.784 55.784 55.791 55.800 55.798 55.796 55.790 55.781 55.779 55.782 55.791 55.789 55.814 55.904 56.007 56.095 56.172 56.223 56.291 56.191 55.951 55.711 55.473 55.234 54.959 54.668 54.574 54.571 54.665 54.954 55.456 55.970 56.388 56.689 56.867 57.091 57.292 57.535
53.350 53.396 53.454 53.522 53.582 53.599 53.589 53.635 53.682 53.724 53.754 53.789 53.896 54.052 54.162 54.257 54.336 54.405 54.494 54.616 54.754 54.907 55.063 55.210 55.367 55.507 55.613 55.700 55.759 55.802 55.799 55.796 55.801 55.796 55.802 55.803 55.809 55.817 55.816 55.811 55.802 55.796 55.798 55.802 55.797 55.808 55.855 55.939 56.027 56.115 56.200 56.247 56.319 56.273 56.034 55.794 55.556 55.347 55.076 54.775 54.646 54.638 54.642 54.862 55.355 55.916 56.354 56.770 56.906 57.058 57.192 57.355
53.367 53.420 53.489 53.560 53.614 53.644 53.615 53.642 53.699 53.742 53.775 53.798 53.858 54.012 54.156 54.256 54.300 54.364 54.452 54.578 54.723 54.857 55.024 55.194 55.365 55.511 55.615 55.696 55.756 55.820 55.813 55.815 55.818 55.806 55.815 55.819 55.820 55.821 55.817 55.824 55.817 55.815 55.815 55.803 55.791 55.831 55.892 55.962 56.047 56.135 56.223 56.279 56.334 56.337 56.117 55.877 55.644 55.458 55.193 54.886 54.717 54.691 54.699 54.869 55.300 55.850 56.331 56.692 56.932 57.082 57.186 57.262
53.381 53.441 53.522 53.585 53.638 53.679 53.670 53.660 53.718 53.759 53.795 53.824 53.860 53.998 54.149 54.246 54.287 54.357 54.447 54.539 54.666 54.818 55.001 55.177 55.337 55.486 55.609 55.706 55.778 55.829 55.827 55.828 55.833 55.825 55.826 55.829 55.827 55.830 55.831 55.837 55.836 55.833 55.831 55.812 55.820 55.875 55.937 55.999 56.069 56.155 56.243 56.313 56.351 56.382 56.199 55.960 55.745 55.565 55.312 55.011 54.823 54.743 54.754 54.861 55.233 55.750 56.263 56.666 56.912 57.080 57.190 57.238
53.416 53.472 53.558 53.601 53.660 53.706 53.718 53.681 53.726 53.776 53.816 53.848 53.853 53.956 54.099 54.218 54.300 54.359 54.430 54.526 54.628 54.799 54.979 55.155 55.317 55.459 55.592 55.708 55.790 55.836 55.841 55.845 55.852 55.846 55.845 55.843 55.847 55.849 55.844 55.847 55.847 55.846 55.849 55.841 55.867 55.922 55.982 56.043 56.105 56.178 56.263 56.344 56.385 56.424 56.282 56.047 55.848 55.672 55.431 55.172 54.958 54.810 54.768 54.842 55.153 55.642 56.184 56.617 56.908 57.086 57.189 57.245
53.454 53.518 53.599 53.638 53.686 53.726 53.760 53.719 53.740 53.793 53.832 53.860 53.890 53.952 54.064 54.187 54.302 54.383 54.448 54.522 54.621 54.777 54.957 55.143 55.312 55.468 55.597 55.706 55.798 55.851 55.860 55.864 55.870 55.864 55.864 55.864 55.863 55.862 55.861 55.859 55.858 55.858 55.862 55.881 55.924 55.977 56.033 56.090 56.149 56.212 56.286 56.370 56.423 56.464 56.362 56.142 55.954 55.780 55.568 55.304 55.036 54.840 54.771 54.838 55.118 55.602 56.139 56.601 56.901 57.084 57.195 57.270
53.490 53.557 53.625 53.676 53.721 53.755 53.783 53.776 53.776 53.816 53.855 53.893 53.928 53.968 54.058 54.187 54.329 54.446 54.492 54.534 54.646 54.793 54.947 55.128 55.301 55.466 55.604 55.712 55.802 55.854 55.870 55.871 55.874 55.874 55.879 55.879 55.877 55.875 55.878 55.877 55.873 55.873 55.873 55.900 55.961 56.025 56.085 56.141 56.200 56.257 56.318 56.391 56.456 56.496 56.434 56.239 56.074 55.923 55.697 55.392 55.097 54.867 54.783 54.853 55.102 55.555 56.073 56.554 56.885 57.081 57.204 57.297
53.528 53.593 53.650 53.705 53.747 53.778 53.807 53.827 53.828 53.846 53.885 53.926 53.959 53.987 54.078 54.233 54.397 54.505 54.540 54.580 54.665 54.771 54.909 55.093 55.277 55.435 55.578 55.703 55.808 55.865 55.878 55.881 55.880 55.880 55.883 55.887 55.885 55.884 55.890 55.890 55.887 55.884 55.885 55.921 55.985 56.050 56.115 56.180 56.243 56.304 56.366 56.425 56.487 56.529 56.516 56.414 56.300 56.094 55.764 55.342 55.086 54.874 54.784 54.844 55.063 55.496 56.013 56.489 56.865 57.108 57.259 57.347
53.563 53.618 53.662 53.711 53.759 53.794 53.827 53.859 53.872 53.874 53.898 53.940 53.977 54.012 54.088 54.245 54.422 54.510 54.538 54.587 54.665 54.752 54.871 55.050 55.240 55.398 55.545 55.682 55.796 55.866 55.884 55.890 55.894 55.898 55.903 55.905 55.898 55.896 55.903 55.905 55.898 55.888 55.896 55.945 56.009 56.074 56.139 56.204 56.269 56.334 56.399 56.463 56.525 56.578 56.616 56.602 56.523 56.255 55.826 55.361 55.042 54.910 54.801 54.823 55.033 55.446 55.961 56.441 56.886 57.146 57.332 57.397
53.577 53.628 53.677 53.718 53.763 53.794 53.834 53.870 53.902 53.906 53.915 53.964 54.004 54.031 54.083 54.202 54.382 54.478 54.513 54.568 54.631 54.715 54.829 55.005 55.187 55.355 55.519 55.679 55.790 55.875 55.893 55.903 55.914 55.917 55.925 55.920 55.917 55.917 55.918 55.922 55.904 55.891 55.908 55.970 56.034 56.095 56.156 56.217 56.278 56.338 56.399 56.459 56.539 56.636 56.681 56.666 56.593 56.372 55.894 55.445 55.089 54.954 54.824 54.808 55.000 55.374 55.862 56.378 56.900 57.152 57.357 57.432
53.578 53.633 53.686 53.720 53.772 53.811 53.849 53.886 53.926 53.948 53.944 53.990 54.026 54.052 54.105 54.163 54.316 54.443 54.493 54.553 54.609 54.693 54.795 54.947 55.123 55.316 55.500 55.686 55.806 55.894 55.905 55.921 55.935 55.935 55.938 55.933 55.936 55.937 55.934 55.931 55.915 55.907 55.914 55.973 56.033 56.092 56.150 56.208 56.266 56.325 56.379 56.467 56.560 56.649 56.706 56.700 56.645 56.438 56.016 55.537 55.139 54.975 54.812 54.775 54.961 55.342 55.822 56.367 56.868 57.129 57.330 57.455
53.578 53.634 53.682 53.711 53.769 53.814 53.865 53.909 53.934 53.985 53.977 53.999 54.043 54.085 54.130 54.156 54.275 54.428 54.519 54.570 54.613 54.690 54.787 54.904 55.057 55.265 55.491 55.701 55.817 55.898 55.914 55.934 55.952 55.954 55.949 55.946 55.947 55.946 55.945 55.940 55.931 55.916 55.921 55.960 56.016 56.074 56.132 56.191 56.248 56.312 56.392 56.482 56.571 56.659 56.748 56.771 56.727 56.482 56.135 55.650 55.254 55.031 54.884 54.805 54.956 55.328 55.840 56.366 56.798 57.126 57.330 57.474
53.574 53.626 53.674 53.696 53.762 53.821 53.885 53.938 53.947 54.006 54.019 54.026 54.067 54.105 54.152 54.170 54.273 54.424 54.558 54.617 54.647 54.699 54.780 54.863 54.992 55.201 55.462 55.690 55.843 55.915 55.929 55.942 55.962 55.968 55.966 55.959 55.960 55.962 55.960 55.958 55.949 55.929 55.930 55.951 55.998 56.056 56.115 56.170 56.235 56.316 56.404 56.492 56.580 56.667 56.751 56.815 56.783 56.565 56.181 55.720 55.356 55.092 54.912 54.814 54.947 55.336 55.874 56.371 56.767 57.141 57.387 57.565
53.564 53.612 53.661 53.698 53.742 53.810 53.885 53.945 53.968 54.010 54.053 54.065 54.108 54.129 54.156 54.190 54.265 54.421 54.571 54.641 54.668 54.687 54.740 54.818 54.931 55.144 55.409 55.662 55.849 55.932 55.952 55.961 55.974 55.979 55.976 55.976 55.979 55.973 55.972 55.974 55.965 55.948 55.946 55.957 55.987 56.038 56.096 56.157 56.237 56.326 56.414 56.500 56.584 56.661 56.735 56.813 56.819 56.629 56.231 55.797 55.432 55.142 54.933 54.815 54.945 55.398 55.971 56.420 56.799 57.157 57.399 57.630
53.546 53.600 53.656 53.703 53.754 53.805 53.871 53.934 53.975 54.012 54.070 54.090 54.118 54.145 54.181 54.217 54.269 54.406 54.560 54.647 54.678 54.678 54.709 54.783 54.889 55.102 55.378 55.644 55.851 55.947 55.970 55.983 55.991 55.989 55.984 55.981 55.982 55.985 55.989 55.987 55.978 55.964 55.962 55.975 55.986 56.019 56.078 56.156 56.241 56.323 56.402 56.479 56.554 56.628 56.704 56.784 56.833 56.698 56.289 55.834 55.450 55.175 54.974 54.850 54.938 55.369 55.863 56.318 56.773 57.116 57.331 57.548
53.533 53.595 53.652 53.703 53.746 53.791 53.855 53.924 53.980 54.022 54.067 54.106 54.131 54.165 54.212 54.248 54.282 54.370 54.499 54.595 54.633 54.646 54.699 54.776 54.866 55.059 55.354 55.643 55.870 55.970 55.988 55.997 56.005 56.002 55.999 56.000 56.003 56.004 56.004 56.004 55.999 55.986 55.985 55.995 55.998 56.021 56.067 56.147 56.225 56.299 56.374 56.448 56.522 56.597 56.673 56.755 56.827 56.779 56.390 55.927 55.541 55.234 55.059 54.885 54.922 55.313 55.779 56.253 56.722 57.097 57.301 57.482
53.533 53.591 53.647 53.698 53.737 53.774 53.831 53.909 53.979 54.032 54.077 54.132 54.167 54.191 54.231 54.270 54.301 54.353 54.456 54.566 54.611 54.653 54.719 54.804 54.896 55.036 55.329 55.649 55.869 55.987 55.999 56.006 56.012 56.012 56.017 56.023 56.023 56.024 56.021 56.020 56.016 56.005 55.994 55.999 56.009 56.027 56.050 56.120 56.194 56.267 56.342 56.416 56.490 56.566 56.645 56.725 56.798 56.823 56.507 56.120 55.677 55.334 55.101 54.939 54.936 55.250 55.717 56.193 56.643 56.991 57.266 57.462
53.529 53.585 53.640 53.687 53.731 53.776 53.822 53.891 53.965 54.031 54.093 54.162 54.204 54.222 54.261 54.293 54.321 54.366 54.441 54.554 54.610 54.665 54.734 54.844 54.962 55.084 55.300 55.626 55.865 56.004 56.012 56.019 56.024 56.025 56.029 56.038 56.038 56.041 56.033 56.027 56.026 56.021 56.011 56.017 56.024 56.013 56.036 56.095 56.164 56.236 56.310 56.384 56.459 56.534 56.614 56.688 56.755 56.830 56.595 56.288 55.840 55.335 55.084 55.001 54.945 55.213 55.657 56.117 56.485 56.841 57.225 57.478
53.515 53.573 53.627 53.667 53.714 53.755 53.809 53.873 53.947 54.021 54.109 54.192 54.255 54.273 54.283 54.320 54.346 54.386 54.425 54.531 54.593 54.668 54.729 54.833 54.977 55.165 55.354 55.652 55.894 56.015 56.029 56.035 56.042 56.043 56.043 56.046 56.060 56.051 56.046 56.045 56.037 56.032 56.031 56.043 56.049 56.028 56.035 56.080 56.142 56.208 56.279 56.352 56.427 56.505 56.581 56.659 56.745 56.797 56.611 56.287 55.809 55.367 55.128 55.018 54.948 55.206 55.599 55.968 56.319 56.729 57.154 57.474
53.501 53.552 53.609 53.649 53.707 53.739 53.781 53.841 53.923 53.998 54.116 54.225 54.305 54.290 54.312 54.363 54.380 54.414 54.435 54.509 54.612 54.720 54.797 54.873 55.001 55.205 55.428 55.702 55.914 56.022 56.035 56.051 56.056 56.053 56.056 56.060 56.062 56.059 56.060 56.064 56.052 56.045 56.046 56.059 56.054 56.041 56.049 56.072 56.126 56.189 56.254 56.322 56.396 56.479 56.576 56.687 56.797 56.820 56.695 56.316 55.834 55.436 55.179 55.057 54.984 55.187 55.511 55.823 56.207 56.644 57.074 57.453
53.506 53.536 53.594 53.637 53.688 53.722 53.770 53.820 53.903 53.979 54.112 54.247 54.347 54.330 54.329 54.376 54.419 54.446 54.466 54.492 54.603 54.731 54.821 54.902 55.033 55.235 55.468 55.727 55.935 56.030 56.055 56.062 56.060 56.064 56.067 56.069 56.081 56.086 56.082 56.080 56.071 56.060 56.057 56.066 56.062 56.048 56.060 56.076 56.114 56.181 56.250 56.314 56.416 56.537 56.664 56.792 56.864 56.866 56.743 56.393 55.955 55.548 55.246 55.102 55.037 55.163 55.442 55.794 56.225 56.646 57.068 57.427
53.501 53.539 53.588 53.625 53.669 53.706 53.755 53.817 53.905 53.989 54.106 54.250 54.358 54.365 54.357 54.389 54.436 54.476 54.496 54.497 54.583 54.725 54.795 54.897 55.054 55.261 55.497 55.743 55.937 56.039 56.070 56.075 56.074 56.076 56.079 56.081 56.086 56.096 56.097 56.092 56.085 56.075 56.067 56.067 56.072 56.075 56.078 56.094 56.129 56.191 56.260 56.319 56.419 56.573 56.741 56.882 56.924 56.916 56.842 56.523 56.077 55.659 55.314 55.136 55.082 55.142 55.407 55.816 56.269 56.690 57.110 57.449
53.494 53.534 53.584 53.626 53.666 53.703 53.756 53.838 53.932 54.015 54.110 54.236 54.326 54.351 54.367 54.407 54.453 54.496 54.527 54.529 54.596 54.723 54.800 54.904 55.080 55.276 55.492 55.741 55.952 56.051 56.079 56.090 56.090 56.089 56.090 56.088 56.097 56.106 56.115 56.112 56.102 56.096 56.086 56.079 56.079 56.086 56.092 56.119 56.163 56.217 56.276 56.326 56.409 56.544 56.715 56.858 56.939 56.984 56.989 56.722 56.126 55.670 55.329 55.192 55.147 55.147 55.381 55.847 56.313 56.725 57.128 57.484
53.479 53.530 53.582 53.627 53.668 53.709 53.766 53.847 53.941 54.034 54.123 54.220 54.313 54.372 54.410 54.434 54.462 54.509 54.547 54.560 54.607 54.712 54.808 54.931 55.106 55.291 55.500 55.746 55.961 56.072 56.096 56.102 56.105 56.108 56.109 56.106 56.119 56.139 56.138 56.129 56.123 56.114 56.107 56.106 56.093 56.097 56.118 56.142 56.185 56.238 56.292 56.349 56.414 56.523 56.677 56.781 56.880 56.978 57.041 56.900 56.383 55.866 55.429 55.340 55.294 55.285 55.415 55.861 56.315 56.716 57.100 57.476
53.478 53.532 53.580 53.622 53.661 53.696 53.746 53.832 53.935 54.044 54.136 54.210 54.305 54.400 54.468 54.469 54.479 54.524 54.565 54.591 54.608 54.671 54.805 54.960 55.127 55.314 55.527 55.758 55.970 56.090 56.115 56.119 56.124 56.125 56.124 56.123 56.137 56.151 56.142 56.145 56.140 56.129 56.121 56.122 56.115 56.118 56.118 56.137 56.195 56.256 56.303 56.361 56.425 56.504 56.612 56.720 56.832 56.963 57.105 56.965 56.444 55.933 55.497 55.423 55.387 55.369 55.412 55.824 56.273 56.751 57.131 57.494
53.491 53.541 53.584 53.621 53.659 53.679 53.717 53.813 53.929 54.044 54.133 54.205 54.294 54.391 54.486 54.506 54.501 54.538 54.592 54.617 54.621 54.659 54.800 54.979 55.161 55.349 55.558 55.783 55.990 56.103 56.127 56.135 56.144 56.139 56.138 56.139 56.150 56.162 56.150 56.152 56.148 56.144 56.137 56.125 56.128 56.127 56.133 56.142 56.200 56.270 56.325 56.371 56.432 56.505 56.606 56.712 56.837 56.996 57.185 56.992 56.499 56.025 55.596 55.484 55.412 55.369 55.394 55.777 56.225 56.704 57.159 57.546
53.518 53.557 53.598 53.626 53.656 53.674 53.716 53.813 53.918 54.037 54.135 54.206 54.286 54.370 54.471 54.526 54.533 54.556 54.610 54.650 54.663 54.667 54.769 54.964 55.172 55.371 55.587 55.833 56.027 56.129 56.148 56.155 56.165 56.154 56.149 56.146 56.163 56.176 56.175 56.170 56.155 56.154 56.157 56.139 56.146 56.150 56.150 56.151 56.201 56.288 56.347 56.393 56.455 56.534 56.596 56.709 56.869 57.041 57.235 57.031 56.591 56.096 55.697 55.554 55.471 55.398 55.383 55.722 56.174 56.629 57.129 57.541
53.528 53.570 53.605 53.629 53.661 53.677 53.725 53.829 53.932 54.043 54.136 54.225 54.292 54.360 54.445 54.566 54.573 54.568 54.622 54.674 54.685 54.696 54.752 54.918 55.143 55.372 55.613 55.878 56.054 56.152 56.167 56.178 56.179 56.168 56.168 56.162 56.168 56.178 56.187 56.183 56.174 56.168 56.167 56.150 56.156 56.165 56.167 56.173 56.216 56.312 56.389 56.433 56.477 56.549 56.602 56.775 56.969 57.127 57.205 57.065 56.687 56.172 55.782 55.624 55.541 55.458 55.411 55.682 56.130 56.572 57.057 57.426
53.539 53.571 53.602 53.630 53.673 53.691 53.754 53.835 53.938 54.056 54.143 54.239 54.304 54.365 54.456 54.538 54.575 54.586 54.636 54.692 54.717 54.727 54.752 54.880 55.097 55.354 55.633 55.906 56.077 56.156 56.177 56.184 56.186 56.179 56.179 56.175 56.188 56.193 56.197 56.194 56.188 56.185 56.178 56.159 56.165 56.180 56.190 56.200 56.250 56.351 56.453 56.506 56.538 56.587 56.647 56.868 57.125 57.200 57.102 57.003 56.735 56.241 55.853 55.693 55.598 55.482 55.430 55.648 56.066 56.490 56.926 57.256
53.562 53.586 53.608 53.633 53.681 53.714 53.775 53.853 53.952 54.067 54.160 54.244 54.325 54.382 54.470 54.538 54.579 54.616 54.654 54.711 54.750 54.766 54.775 54.859 55.066 55.340 55.637 55.918 56.098 56.172 56.191 56.199 56.199 56.189 56.187 56.193 56.196 56.196 56.204 56.204 56.204 56.203 56.198 56.180 56.176 56.195 56.212 56.229 56.290 56.401 56.517 56.592 56.622 56.646 56.688 56.860 57.115 57.140 57.038 56.953 56.729 56.306 55.903 55.725 55.589 55.445 55.420 55.632 55.982 56.407 56.844 57.159
53.577 53.609 53.631 53.654 53.700 53.749 53.804 53.879 53.968 54.075 54.170 54.262 54.360 54.414 54.488 54.566 54.613 54.651 54.675 54.716 54.766 54.799 54.810 54.849 55.030 55.323 55.627 55.901 56.103 56.194 56.208 56.213 56.216 56.211 56.211 56.209 56.213 56.229 56.233 56.229 56.224 56.220 56.221 56.211 56.199 56.208 56.232 56.251 56.314 56.429 56.540 56.616 56.656 56.685 56.719 56.829 56.981 56.950 56.889 56.818 56.677 56.338 55.939 55.642 55.465 55.386 55.405 55.605 55.933 56.416 56.866 57.157
53.606 53.631 53.653 53.683 53.727 53.784 53.858 53.922 53.989 54.086 54.185 54.287 54.383 54.439 54.499 54.574 54.632 54.678 54.703 54.724 54.777 54.819 54.842 54.863 54.993 55.283 55.611 55.891 56.098 56.199 56.218 56.222 56.233 56.232 56.231 56.228 56.228 56.234 56.241 56.249 56.244 56.237 56.237 56.235 56.221 56.222 56.244 56.264 56.331 56.447 56.539 56.603 56.666 56.704 56.743 56.786 56.901 56.919 56.885 56.852 56.792 56.454 56.038 55.526 55.389 55.382 55.428 55.635 55.954 56.451 56.903 57.247
53.637 53.659 53.681 53.714 53.760 53.822 53.893 53.961 54.014 54.099 54.200 54.300 54.391 54.454 54.497 54.557 54.630 54.692 54.731 54.736 54.786 54.842 54.874 54.883 54.951 55.213 55.569 55.868 56.100 56.216 56.232 56.236 56.245 56.245 56.241 56.242 56.237 56.234 56.254 56.262 56.258 56.256 56.250 56.248 56.239 56.249 56.271 56.282 56.345 56.465 56.540 56.603 56.693 56.755 56.790 56.789 56.912 57.032 56.996 56.963 57.023 56.584 56.081 55.616 55.534 55.449 55.446 55.704 55.993 56.501 56.913 57.326
53.675 53.694 53.713 53.747 53.795 53.855 53.917 53.983 54.017 54.109 54.207 54.304 54.385 54.454 54.519 54.559 54.629 54.692 54.734 54.754 54.800 54.857 54.897 54.906 54.936 55.126 55.494 55.819 56.083 56.228 56.244 56.254 56.262 56.260 56.254 56.261 56.259 56.265 56.273 56.271 56.266 56.271 56.269 56.262 56.253 56.257 56.277 56.298 56.349 56.460 56.535 56.614 56.730 56.817 56.844 56.815 56.885 57.100 57.112 57.179 57.162 56.732 56.248 55.832 55.646 55.495 55.438 55.721 56.012 56.452 56.892 57.331
53.722 53.735 53.754 53.782 53.828 53.884 53.950 54.012 54.042 54.130 54.219 54.313 54.379 54.471 54.534 54.567 54.649 54.713 54.742 54.772 54.806 54.862 54.925 54.942 54.943 55.048 55.395 55.735 56.054 56.246 56.253 56.264 56.267 56.275 56.268 56.280 56.282 56.283 56.285 56.281 56.279 56.279 56.284 56.271 56.269 56.286 56.297 56.305 56.366 56.463 56.551 56.641 56.737 56.841 56.887 56.851 56.863 57.062 57.240 57.426 57.320 56.960 56.356 55.859 55.633 55.492 55.401 55.639 55.991 56.386 56.845 57.378
53.757 53.765 53.799 53.822 53.856 53.904 54.000 54.037 54.059 54.138 54.214 54.314 54.376 54.464 54.545 54.577 54.655 54.736 54.770 54.805 54.819 54.875 54.947 54.968 54.974 55.023 55.292 55.630 55.978 56.223 56.275 56.279 56.279 56.289 56.283 56.293 56.300 56.297 56.302 56.297 56.299 56.295 56.295 56.287 56.281 56.289 56.312 56.334 56.395 56.498 56.580 56.683 56.804 56.913 56.935 56.910 56.891 57.021 57.294 57.656 57.472 57.084 56.477 55.897 55.631 55.512 55.395 55.516 55.824 56.247 56.759 57.386
53.791 53.804 53.830 53.856 53.878 53.931 54.027 54.044 54.079 54.147 54.213 54.312 54.390 54.470 54.556 54.607 54.660 54.744 54.797 54.845 54.856 54.890 54.955 54.998 55.014 55.034 55.209 55.521 55.887 56.178 56.281 56.293 56.299 56.306 56.298 56.302 56.309 56.309 56.311 56.315 56.316 56.317 56.311 56.301 56.294 56.303 56.327 56.350 56.417 56.520 56.600 56.699 56.795 56.895 56.959 56.961 56.929 57.038 57.322 57.561 57.492 57.117 56.520 55.971 55.688 55.575 55.444 55.479 55.763 56.188 56.720 57.220
53.819 53.844 53.862 53.881 53.894 53.955 54.035 54.067 54.091 54.152 54.233 54.324 54.402 54.480 54.562 54.624 54.665 54.747 54.822 54.883 54.903 54.918 54.970 55.027 55.055 55.072 55.163 55.427 55.792 56.108 56.267 56.304 56.313 56.321 56.316 56.316 56.320 56.319 56.327 56.334 56.331 56.330 56.330 56.318 56.312 56.327 56.337 56.366 56.447 56.545 56.625 56.721 56.835 56.927 56.982 57.008 56.992 57.080 57.331 57.475 57.430 57.123 56.565 56.080 55.786 55.608 55.494 55.490 55.761 56.179 56.692 57.188
53.857 53.880 53.894 53.902 53.919 53.977 54.041 54.088 54.118 54.173 54.262 54.347 54.419 54.497 54.570 54.635 54.677 54.743 54.844 54.928 54.956 54.949 54.977 55.048 55.091 55.103 55.150 55.342 55.677 56.024 56.253 56.316 56.321 56.328 56.331 56.328 56.332 56.333 56.340 56.346 56.345 56.344 56.348 56.341 56.330 56.336 56.350 56.382 56.454 56.556 56.628 56.715 56.835 56.911 56.978 57.033 57.055 57.091 57.228 57.291 57.077 56.783 56.489 56.146 55.805 55.546 55.453 55.500 55.775 56.178 56.635 57.111
53.880 53.911 53.918 53.921 53.947 54.012 54.079 54.124 54.152 54.203 54.291 54.375 54.442 54.512 54.582 54.650 54.697 54.752 54.854 54.951 55.001 54.996 55.004 55.060 55.114 55.138 55.163 55.279 55.564 55.916 56.200 56.323 56.333 56.339 56.347 56.346 56.350 56.350 56.356 56.359 56.357 56.357 56.361 56.361 56.349 56.339 56.363 56.390 56.438 56.540 56.614 56.690 56.819 56.912 56.985 57.040 57.072 57.089 57.108 57.002 56.773 56.554 56.381 56.196 55.805 55.525 55.514 55.593 55.801 56.116 56.583 57.085
53.921 53.946 53.948 53.950 53.982 54.042 54.110 54.155 54.170 54.226 54.304 54.392 54.458 54.521 54.588 54.660 54.719 54.764 54.851 54.957 55.024 55.024 55.031 55.079 55.140 55.175 55.194 55.255 55.471 55.813 56.146 56.330 56.347 56.351 56.363 56.361 56.362 56.359 56.359 56.362 56.365 56.365 56.378 56.387 56.363 56.350 56.368 56.394 56.432 56.518 56.625 56.693 56.815 56.899 56.963 57.042 57.098 57.117 57.089 56.908 56.734 56.571 56.413 56.254 55.847 55.570 55.631 55.732 55.869 56.107 56.521 57.021
53.947 53.978 53.985 53.985 54.027 54.084 54.131 54.160 54.185 54.249 54.316 54.395 54.458 54.522 54.601 54.659 54.733 54.782 54.852 54.949 55.034 55.061 55.070 55.088 55.152 55.193 55.223 55.254 55.395 55.701 56.054 56.318 56.367 56.366 56.372 56.375 56.378 56.368 56.375 56.381 56.382 56.374 56.392 56.401 56.396 56.372 56.366 56.399 56.444 56.495 56.638 56.740 56.825 56.906 56.971 57.063 57.143 57.146 57.080 56.922 56.761 56.603 56.444 56.286 55.947 55.693 55.763 55.896 56.031 56.203 56.543 56.963
53.972 54.003 54.017 54.018 54.065 54.113 54.148 54.170 54.203 54.270 54.328 54.406 54.474 54.544 54.613 54.675 54.738 54.800 54.859 54.933 55.036 55.109 55.124 55.112 55.169 55.221 55.252 55.267 55.339 55.591 55.955 56.274 56.372 56.381 56.383 56.389 56.395 56.396 56.394 56.397 56.397 56.393 56.405 56.396 56.386 56.383 56.371 56.401 56.454 56.504 56.625 56.760 56.852 56.958 57.063 57.129 57.155 57.155 57.111 56.999 56.853 56.652 56.491 56.345 56.056 55.805 55.774 55.913 56.129 56.325 56.585 56.919
53.986 54.029 54.051 54.057 54.097 54.134 54.164 54.216 54.245 54.290 54.345 54.426 54.477 54.544 54.608 54.684 54.736 54.795 54.863 54.929 55.029 55.128 55.171 55.146 55.181 55.237 55.282 55.298 55.336 55.510 55.850 56.202 56.359 56.397 56.401 56.407 56.412 56.407 56.408 56.412 56.412 56.414 56.417 56.407 56.398 56.387 56.398 56.422 56.465 56.529 56.633 56.742 56.852 56.988 57.103 57.169 57.169 57.164 57.156 57.103 57.013 56.867 56.717 56.525 56.179 55.873 55.768 55.816 55.964 56.180 56.470 56.817
54.030 54.069 54.093 54.098 54.124 54.149 54.163 54.227 54.263 54.301 54.365 54.440 54.485 54.551 54.615 54.686 54.741 54.795 54.860 54.919 55.019 55.119 55.177 55.182 55.200 55.255 55.306 55.332 55.356 55.454 55.728 56.097 56.326 56.407 56.417 56.418 56.421 56.417 56.421 56.424 56.426 56.427 56.428 56.421 56.406 56.394 56.417 56.450 56.488 56.563 56.663 56.753 56.842 56.965 57.084 57.140 57.148 57.157 57.173 57.145 57.083 57.025 56.945 56.714 56.330 55.952 55.769 55.780 55.833 56.009 56.338 56.688
54.058 54.104 54.131 54.135 54.153 54.169 54.175 54.243 54.278 54.313 54.380 54.454 54.500 54.567 54.633 54.695 54.759 54.817 54.868 54.927 55.023 55.127 55.211 55.232 55.239 55.278 55.327 55.368 55.392 55.430 55.632 55.978 56.267 56.405 56.431 56.426 56.430 56.434 56.438 56.445 56.447 56.446 56.444 56.438 56.417 56.408 56.435 56.471 56.521 56.601 56.717 56.808 56.870 56.940 57.028 57.107 57.138 57.163 57.187 57.150 57.092 57.023 56.916 56.738 56.437 56.044 55.784 55.756 55.781 55.922 56.269 56.629
54.067 54.112 54.148 54.164 54.172 54.183 54.206 54.259 54.305 54.341 54.403 54.474 54.528 54.591 54.659 54.713 54.774 54.833 54.886 54.952 55.033 55.130 55.231 55.281 55.278 55.297 55.347 55.394 55.421 55.442 55.561 55.864 56.197 56.386 56.444 56.441 56.443 56.450 56.459 56.460 56.463 56.462 56.456 56.454 56.438 56.424 56.451 56.499 56.555 56.642 56.764 56.849 56.915 56.985 57.047 57.094 57.134 57.189 57.205 57.147 57.064 56.947 56.819 56.683 56.480 56.114 55.816 55.706 55.702 55.885 56.197 56.632
54.086 54.124 54.163 54.185 54.189 54.205 54.227 54.262 54.316 54.361 54.424 54.497 54.553 54.608 54.676 54.742 54.795 54.845 54.902 54.973 55.050 55.129 55.238 55.319 55.332 55.330 55.373 55.421 55.456 55.464 55.533 55.767 56.115 56.354 56.450 56.456 56.461 56.468 56.472 56.479 56.476 56.474 56.470 56.467 56.453 56.448 56.471 56.528 56.588 56.685 56.785 56.874 56.985 57.077 57.112 57.135 57.181 57.231 57.200 57.101 56.982 56.852 56.723 56.592 56.450 56.189 55.868 55.696 55.692 55.886 56.115 56.527
54.098 54.145 54.180 54.200 54.211 54.226 54.245 54.272 54.327 54.368 54.428 54.516 54.580 54.633 54.698 54.757 54.800 54.853 54.914 54.991 55.070 55.131 55.243 55.340 55.382 55.369 55.397 55.445 55.496 55.520 55.550 55.683 56.031 56.309 56.448 56.467 56.476 56.478 56.484 56.489 56.486 56.489 56.491 56.486 56.467 56.472 56.500 56.553 56.631 56.752 56.831 56.913 57.040 57.162 57.180 57.209 57.241 57.268 57.171 57.041 56.909 56.775 56.646 56.534 56.421 56.240 55.998 55.782 55.710 55.840 56.106 56.475
54.100 54.158 54.195 54.218 54.230 54.251 54.257 54.286 54.343 54.384 54.435 54.536 54.613 54.672 54.718 54.771 54.818 54.878 54.928 55.004 55.088 55.148 55.245 55.370 55.428 55.404 55.413 55.464 55.525 55.549 55.568 55.636 55.944 56.259 56.449 56.482 56.490 56.502 56.496 56.499 56.498 56.500 56.506 56.504 56.476 56.481 56.528 56.581 56.665 56.803 56.872 56.952 57.064 57.192 57.248 57.269 57.285 57.296 57.208 57.098 56.986 56.875 56.763 56.642 56.514 56.257 56.054 55.855 55.757 55.848 56.093 56.466
54.123 54.184 54.216 54.245 54.253 54.271 54.284 54.318 54.358 54.413 54.451 54.562 54.642 54.710 54.752 54.795 54.844 54.900 54.942 55.012 55.101 55.160 55.247 55.368 55.441 55.438 55.450 55.487 55.558 55.593 55.605 55.641 55.859 56.190 56.422 56.498 56.505 56.509 56.508 56.512 56.518 56.512 56.513 56.515 56.495 56.519 56.560 56.608 56.720 56.816 56.882 56.959 57.067 57.194 57.272 57.316 57.349 57.364 57.314 57.216 57.104 56.984 56.858 56.729 56.600 56.285 56.032 55.875 55.813 55.883 56.080 56.439
54.136 54.200 54.241 54.275 54.282 54.288 54.314 54.343 54.381 54.446 54.481 54.588 54.666 54.740 54.795 54.843 54.884 54.929 54.978 55.033 55.110 55.178 55.266 55.344 55.407 55.450 55.489 55.517 55.589 55.631 55.658 55.675 55.810 56.107 56.368 56.497 56.520 56.517 56.523 56.537 56.535 56.527 56.525 56.523 56.503 56.528 56.569 56.639 56.753 56.826 56.891 56.980 57.081 57.171 57.288 57.403 57.455 57.433 57.408 57.328 57.200 57.073 56.945 56.817 56.671 56.325 55.995 55.886 55.919 56.022 56.203 56.480
54.139 54.200 54.252 54.289 54.304 54.311 54.332 54.359 54.397 54.458 54.511 54.605 54.684 54.756 54.824 54.880 54.914 54.959 55.010 55.065 55.132 55.213 55.286 55.352 55.410 55.471 55.526 55.556 55.618 55.672 55.699 55.714 55.789 56.019 56.291 56.475 56.529 56.531 56.531 56.544 56.548 56.543 56.538 56.531 56.525 56.543 56.585 56.664 56.768 56.855 56.931 57.024 57.116 57.205 57.319 57.476 57.552 57.511 57.497 57.458 57.348 57.218 57.075 56.932 56.730 56.344 56.011 55.967 56.011 56.067 56.232 56.504
54.129 54.190 54.254 54.302 54.329 54.348 54.359 54.385 54.417 54.473 54.532 54.618 54.708 54.784 54.840 54.893 54.948 54.991 55.033 55.094 55.158 55.235 55.310 55.379 55.452 55.513 55.559 55.592 55.636 55.692 55.732 55.747 55.788 55.941 56.201 56.435 56.533 56.548 56.553 56.558 56.565 56.563 56.555 56.543 56.540 56.564 56.608 56.687 56.796 56.910 57.005 57.089 57.171 57.262 57.381 57.510 57.555 57.525 57.546 57.574 57.513 57.385 57.258 57.143 56.898 56.439 56.081 56.016 56.014 56.047 56.231 56.569
54.129 54.198 54.270 54.323 54.360 54.383 54.386 54.403 54.437 54.490 54.561 54.644 54.729 54.803 54.860 54.915 54.969 55.018 55.058 55.118 55.184 55.244 55.310 55.386 55.475 55.534 55.585 55.637 55.660 55.707 55.762 55.792 55.810 55.900 56.120 56.384 56.522 56.550 56.566 56.581 56.587 56.584 56.572 56.560 56.552 56.580 56.635 56.721 56.843 56.968 57.087 57.168 57.216 57.288 57.383 57.462 57.459 57.487 57.536 57.624 57.674 57.620 57.562 57.419 57.086 56.646 56.177 56.021 56.003 56.016 56.255 56.715
54.159 54.226 54.290 54.343 54.382 54.408 54.413 54.423 54.452 54.513 54.589 54.672 54.753 54.826 54.884 54.935 54.997 55.050 55.087 55.140 55.198 55.252 55.314 55.384 55.480 55.566 55.634 55.692 55.688 55.724 55.783 55.819 55.839 55.892 56.045 56.324 56.511 56.558 56.571 56.591 56.599 56.596 56.590 56.580 56.572 56.602 56.659 56.758 56.873 56.963 57.107 57.173 57.201 57.277 57.358 57.436 57.473 57.492 57.524 57.641 57.760 57.766 57.696 57.569 57.149 56.775 56.305 56.077 55.996 56.027 56.218 56.832
54.191 54.262 54.318 54.365 54.399 54.429 54.446 54.452 54.477 54.542 54.614 54.697 54.775 54.840 54.890 54.945 55.021 55.072 55.116 55.159 55.209 55.266 55.320 55.376 55.448 55.565 55.653 55.713 55.724 55.749 55.810 55.859 55.878 55.903 55.977 56.248 56.484 56.564 56.579 56.585 56.606 56.612 56.604 56.595 56.581 56.616 56.679 56.773 56.874 56.920 57.028 57.108 57.213 57.273 57.334 57.412 57.490 57.491 57.548 57.677 57.804 57.817 57.772 57.608 57.248 56.879 56.476 56.201 56.020 56.025 56.175 56.807
54.222 54.304 54.351 54.389 54.415 54.443 54.464 54.486 54.514 54.569 54.631 54.727 54.802 54.863 54.924 54.982 55.023 55.099 55.156 55.189 55.224 55.271 55.330 55.387 55.434 55.539 55.634 55.715 55.762 55.766 55.835 55.883 55.913 55.932 55.947 56.179 56.434 56.564 56.589 56.618 56.612 56.618 56.608 56.600 56.599 56.629 56.684 56.775 56.864 56.913 56.974 57.078 57.197 57.271 57.335 57.427 57.483 57.500 57.586 57.693 57.800 57.835 57.827 57.708 57.356 56.977 56.607 56.281 56.071 56.051 56.218 56.727
54.253 54.325 54.362 54.405 54.424 54.453 54.466 54.510 54.558 54.593 54.641 54.744 54.820 54.894 54.956 55.003 55.063 55.139 55.201 55.234 55.256 55.301 55.357 55.415 55.475 55.539 55.623 55.732 55.797 55.800 55.849 55.911 55.947 55.964 55.976 56.129 56.369 56.545 56.600 56.619 56.619 56.614 56.610 56.612 56.629 56.656 56.705 56.790 56.878 56.928 56.990 57.089 57.169 57.239 57.336 57.454 57.484 57.523 57.597 57.684 57.780 57.833 57.835 57.755 57.481 57.093 56.695 56.320 56.099 56.069 56.220 56.686
54.244 54.325 54.384 54.414 54.427 54.449 54.476 54.521 54.588 54.622 54.657 54.739 54.825 54.902 54.965 55.022 55.110 55.169 55.224 55.268 55.296 55.334 55.383 55.449 55.506 55.560 55.627 55.742 55.829 55.845 55.873 55.930 55.975 55.999 56.012 56.099 56.298 56.500 56.612 56.640 56.626 56.616 56.618 56.630 56.655 56.693 56.737 56.805 56.885 56.948 57.023 57.105 57.158 57.234 57.359 57.463 57.505 57.548 57.613 57.686 57.767 57.822 57.828 57.783 57.616 57.254 56.795 56.375 56.125 56.092 56.231 56.648
54.267 54.354 54.413 54.431 54.457 54.481 54.523 54.563 54.622 54.660 54.693 54.756 54.841 54.919 54.988 55.049 55.127 55.191 55.239 55.292 55.333 55.363 55.405 55.470 55.538 55.591 55.645 55.741 55.847 55.887 55.900 55.941 55.996 56.035 56.054 56.091 56.227 56.420 56.553 56.608 56.627 56.629 56.635 56.649 56.676 56.716 56.754 56.811 56.893 56.966 57.054 57.139 57.188 57.266 57.385 57.476 57.528 57.580 57.655 57.733 57.813 57.859 57.837 57.808 57.724 57.411 56.900 56.458 56.198 56.139 56.237 56.642
54.308 54.375 54.442 54.480 54.514 54.549 54.593 54.625 54.664 54.701 54.739 54.791 54.867 54.946 55.025 55.093 55.153 55.202 55.257 55.317 55.367 55.399 55.438 55.500 55.573 55.614 55.660 55.748 55.857 55.924 55.940 55.965 56.018 56.066 56.093 56.111 56.190 56.354 56.501 56.574 56.614 56.635 56.647 56.664 56.692 56.730 56.774 56.837 56.918 57.012 57.114 57.187 57.229 57.295 57.402 57.499 57.566 57.643 57.752 57.853 57.951 58.018 57.971 57.919 57.796 57.487 56.971 56.569 56.298 56.222 56.225 56.563
54.328 54.403 54.478 54.534 54.572 54.607 54.639 54.665 54.698 54.743 54.783 54.832 54.899 54.970 55.044 55.116 55.180 55.229 55.280 55.340 55.394 55.434 55.478 55.530 55.578 55.621 55.670 55.756 55.865 55.955 55.983 55.991 56.034 56.093 56.125 56.141 56.189 56.311 56.456 56.539 56.593 56.632 56.658 56.684 56.716 56.746 56.789 56.859 56.953 57.056 57.168 57.223 57.274 57.322 57.410 57.513 57.618 57.740 57.869 58.018 58.136 58.171 58.111 58.056 57.854 57.548 57.080 56.671 56.374 56.266 56.255 56.589
54.361 54.430 54.513 54.583 54.624 54.651 54.670 54.694 54.725 54.770 54.816 54.866 54.931 54.997 55.074 55.141 55.197 55.254 55.316 55.375 55.429 55.471 55.508 55.549 55.595 55.637 55.683 55.756 55.863 55.966 56.014 56.017 56.053 56.119 56.161 56.177 56.214 56.305 56.417 56.510 56.577 56.630 56.666 56.696 56.729 56.754 56.803 56.872 56.965 57.076 57.167 57.231 57.300 57.341 57.405 57.526 57.635 57.782 57.926 58.154 58.366 58.305 58.182 58.159 58.016 57.699 57.225 56.742 56.380 56.287 56.277 56.505
54.333 54.429 54.532 54.615 54.662 54.675 54.695 54.718 54.759 54.801 54.851 54.900 54.963 55.030 55.103 55.158 55.214 55.285 55.344 55.405 55.455 55.500 55.544 55.576 55.613 55.651 55.696 55.757 55.864 55.967 56.046 56.066 56.078 56.139 56.191 56.214 56.247 56.310 56.398 56.491 56.573 56.638 56.673 56.702 56.734 56.754 56.792 56.858 56.954 57.065 57.163 57.227 57.307 57.347 57.420 57.534 57.640 57.754 57.950 58.225 58.499 58.454 58.274 58.235 58.017 57.801 57.330 56.849 56.464 56.302 56.305 56.489
54.323 54.407 54.532 54.629 54.690 54.704 54.734 54.763 54.802 54.835 54.879 54.927 54.991 55.051 55.124 55.184 55.262 55.311 55.360 55.415 55.476 55.521 55.572 55.606 55.614 55.672 55.726 55.776 55.873 55.969 56.064 56.105 56.102 56.152 56.210 56.245 56.272 56.326 56.400 56.484 56.569 56.640 56.681 56.722 56.745 56.755 56.790 56.842 56.941 57.051 57.152 57.210 57.285 57.348 57.441 57.567 57.653 57.752 57.980 58.177 58.346 58.294 58.157 58.058 57.988 57.863 57.439 56.963 56.560 56.341 56.322 56.495
54.313 54.393 54.516 54.639 54.708 54.743 54.777 54.816 54.829 54.864 54.909 54.958 55.022 55.074 55.145 55.197 55.265 55.326 55.370 55.422 55.490 55.539 55.589 55.627 55.637 55.690 55.750 55.806 55.884 55.984 56.075 56.129 56.145 56.176 56.224 56.273 56.306 56.348 56.412 56.489 56.572 56.631 56.681 56.727 56.751 56.766 56.787 56.817 56.917 57.026 57.129 57.193 57.270 57.362 57.459 57.575 57.664 57.789 57.941 58.064 58.186 58.205 58.156 58.084 58.002 57.890 57.546 57.057 56.638 56.386 56.334 56.504
54.327 54.416 54.546 54.661 54.731 54.773 54.811 54.837 54.858 54.890 54.937 54.985 55.048 55.110 55.166 55.223 55.287 55.342 55.393 55.437 55.498 55.558 55.610 55.640 55.664 55.718 55.773 55.825 55.873 55.963 56.066 56.142 56.184 56.203 56.243 56.302 56.342 56.379 56.430 56.503 56.580 56.641 56.685 56.720 56.748 56.766 56.796 56.852 56.938 57.031 57.122 57.202 57.285 57.379 57.495 57.612 57.679 57.757 57.884 58.028 58.143 58.193 58.180 58.115 58.032 57.884 57.589 57.115 56.661 56.411 56.366 56.500
54.418 54.475 54.576 54.694 54.768 54.811 54.845 54.870 54.888 54.925 54.972 55.015 55.078 55.155 55.214 55.266 55.317 55.369 55.424 55.473 55.523 55.578 55.623 55.664 55.703 55.752 55.797 55.837 55.867 55.940 56.048 56.141 56.201 56.232 56.274 56.331 56.371 56.405 56.446 56.508 56.585 56.652 56.697 56.725 56.753 56.784 56.830 56.897 56.972 57.061 57.144 57.226 57.324 57.412 57.503 57.609 57.698 57.789 57.919 58.051 58.131 58.170 58.183 58.145 58.048 57.855 57.535 57.114 56.685 56.430 56.390 56.508
54.456 54.502 54.606 54.718 54.805 54.863 54.893 54.905 54.912 54.937 54.993 55.051 55.117 55.196 55.252 55.299 55.346 55.395 55.449 55.501 55.553 55.602 55.642 55.689 55.739 55.791 55.833 55.861 55.888 55.947 56.052 56.156 56.234 56.273 56.300 56.350 56.394 56.434 56.473 56.527 56.597 56.663 56.711 56.746 56.772 56.807 56.855 56.927 57.001 57.088 57.176 57.256 57.358 57.448 57.523 57.613 57.718 57.825 57.951 58.057 58.107 58.142 58.173 58.174 58.055 57.797 57.489 57.148 56.762 56.490 56.409 56.520
54.459 54.512 54.623 54.737 54.841 54.911 54.939 54.947 54.952 54.976 55.028 55.083 55.149 55.232 55.298 55.342 55.375 55.412 55.469 55.525 55.578 55.622 55.663 55.710 55.759 55.817 55.861 55.891 55.925 55.983 56.078 56.182 56.265 56.323 56.336 56.367 56.416 56.461 56.497 56.554 56.621 56.682 56.730 56.771 56.802 56.840 56.886 56.958 57.030 57.115 57.225 57.310 57.397 57.483 57.547 57.637 57.721 57.824 57.967 58.067 58.097 58.122 58.148 58.163 58.039 57.760 57.499 57.229 56.892 56.606 56.487 56.516
54.477 54.538 54.656 54.762 54.863 54.939 54.968 54.973 54.988 55.016 55.048 55.101 55.175 55.266 55.335 55.380 55.414 55.442 55.494 55.546 55.602 55.646 55.685 55.733 55.786 55.845 55.885 55.925 55.969 56.026 56.099 56.173 56.257 56.347 56.379 56.396 56.445 56.496 56.533 56.574 56.627 56.702 56.754 56.792 56.828 56.869 56.924 56.993 57.062 57.153 57.273 57.356 57.422 57.504 57.566 57.633 57.727 57.819 57.968 58.124 58.155 58.186 58.187 58.192 58.074 57.821 57.564 57.304 57.008 56.681 56.609 56.584
54.515 54.572 54.688 54.793 54.878 54.951 54.990 54.996 55.014 55.052 55.094 55.146 55.221 55.303 55.369 55.415 55.448 55.476 55.514 55.564 55.624 55.670 55.715 55.758 55.802 55.854 55.910 55.960 56.015 56.070 56.118 56.163 56.249 56.363 56.419 56.423 56.476 56.523 56.570 56.615 56.656 56.717 56.765 56.808 56.847 56.893 56.942 57.006 57.076 57.187 57.310 57.372 57.424 57.495 57.569 57.642 57.745 57.830 57.971 58.196 58.199 58.187 58.192 58.209 58.101 57.869 57.622 57.368 57.104 56.734 56.630 56.628
54.529 54.568 54.704 54.820 54.899 54.961 55.012 55.028 55.077 55.099 55.131 55.186 55.267 55.341 55.403 55.445 55.483 55.506 55.531 55.584 55.636 55.688 55.750 55.800 55.843 55.889 55.941 55.992 56.055 56.105 56.140 56.156 56.257 56.373 56.445 56.450 56.500 56.546 56.599 56.634 56.689 56.749 56.782 56.824 56.870 56.928 56.974 57.038 57.120 57.237 57.320 57.385 57.429 57.498 57.580 57.674 57.769 57.844 57.951 58.167 58.188 58.186 58.204 58.223 58.129 57.911 57.664 57.434 57.198 56.861 56.671 56.723
54.570 54.570 54.734 54.871 54.945 54.996 55.038 55.075 55.120 55.159 55.209 55.269 55.292 55.373 55.438 55.488 55.525 55.537 55.555 55.595 55.642 55.710 55.781 55.834 55.872 55.926 55.976 56.023 56.081 56.140 56.181 56.203 56.294 56.388 56.464 56.490 56.519 56.569 56.617 56.672 56.716 56.768 56.812 56.857 56.902 56.958 57.012 57.073 57.148 57.261 57.335 57.397 57.439 57.506 57.587 57.668 57.767 57.852 57.960 58.066 58.137 58.189 58.219 58.239 58.159 57.958 57.731 57.537 57.308 56.974 56.708 56.743
54.661 54.630 54.789 54.916 54.985 55.038 55.071 55.121 55.175 55.248 55.296 55.308 55.306 55.378 55.441 55.503 55.556 55.580 55.583 55.599 55.657 55.727 55.800 55.855 55.898 55.953 55.999 56.045 56.108 56.175 56.225 56.256 56.329 56.400 56.478 56.520 56.550 56.593 56.649 56.697 56.742 56.785 56.839 56.892 56.938 56.988 57.034 57.093 57.161 57.269 57.362 57.413 57.459 57.520 57.595 57.696 57.796 57.871 57.927 57.994 58.071 58.128 58.184 58.241 58.194 58.034 57.850 57.677 57.429 57.058 56.755 56.738
54.755 54.738 54.848 54.939 55.006 55.069 55.124 55.173 55.217 55.292 55.298 55.298 55.315 55.364 55.443 55.518 55.572 55.601 55.612 55.621 55.682 55.749 55.815 55.883 55.933 55.978 56.019 56.064 56.126 56.197 56.254 56.289 56.343 56.415 56.492 56.553 56.588 56.621 56.674 56.729 56.777 56.816 56.862 56.917 56.970 57.022 57.070 57.134 57.201 57.286 57.388 57.452 57.488 57.521 57.578 57.679 57.782 57.873 57.936 57.990 58.046 58.101 58.161 58.224 58.246 58.165 58.009 57.829 57.563 57.150 56.816 56.740
54.832 54.809 54.876 54.950 55.018 55.091 55.169 55.216 55.258 55.296 55.293 55.301 55.332 55.371 55.444 55.520 55.567 55.604 55.629 55.653 55.709 55.770 55.830 55.901 55.962 56.006 56.041 56.083 56.140 56.208 56.268 56.305 56.351 56.423 56.504 56.578 56.619 56.642 56.687 56.750 56.803 56.841 56.881 56.938 56.996 57.049 57.091 57.136 57.215 57.350 57.453 57.517 57.533 57.547 57.599 57.668 57.758 57.870 57.950 57.993 58.047 58.111 58.165 58.216 58.248 58.229 58.164 57.994 57.656 57.214 56.907 56.768
54.914 54.880 54.890 54.956 55.028 55.098 55.169 55.213 55.254 55.285 55.296 55.314 55.346 55.387 55.446 55.516 55.564 55.610 55.650 55.680 55.727 55.785 55.850 55.924 55.986 56.021 56.056 56.102 56.158 56.215 56.275 56.326 56.376 56.439 56.517 56.597 56.649 56.676 56.713 56.772 56.830 56.865 56.897 56.954 57.015 57.071 57.110 57.171 57.266 57.409 57.505 57.572 57.570 57.563 57.605 57.670 57.769 57.897 57.980 58.009 58.051 58.109 58.158 58.204 58.228 58.215 58.194 58.110 57.691 57.264 56.946 56.761
54.976 54.915 54.915 54.981 55.054 55.115 55.173 55.208 55.257 55.287 55.308 55.333 55.354 55.394 55.457 55.524 55.570 55.624 55.660 55.699 55.742 55.798 55.863 55.934 55.993 56.034 56.081 56.122 56.172 56.222 56.280 56.339 56.391 56.448 56.511 56.605 56.681 56.714 56.735 56.789 56.855 56.906 56.921 56.963 57.032 57.104 57.147 57.227 57.307 57.403 57.493 57.567 57.574 57.573 57.622 57.697 57.782 57.962 58.005 58.039 58.065 58.104 58.147 58.195 58.206 58.191 58.166 58.130 57.726 57.324 56.942 56.733
55.016 54.956 54.937 55.000 55.076 55.141 55.208 55.234 55.282 55.304 55.327 55.344 55.360 55.402 55.469 55.536 55.582 55.631 55.668 55.710 55.760 55.816 55.877 55.946 56.006 56.053 56.100 56.140 56.190 56.243 56.301 56.356 56.396 56.445 56.517 56.614 56.702 56.752 56.762 56.800 56.875 56.933 56.945 56.975 57.042 57.137 57.203 57.273 57.344 57.404 57.479 57.533 57.558 57.584 57.646 57.700 57.779 57.892 57.994 58.044 58.075 58.109 58.144 58.185 58.182 58.158 58.127 58.099 57.793 57.421 57.031 56.764
55.014 54.963 54.949 55.006 55.084 55.153 55.215 55.244 55.281 55.287 55.332 55.368 55.387 55.427 55.485 55.549 55.594 55.645 55.698 55.740 55.787 55.840 55.899 55.972 56.037 56.071 56.127 56.166 56.214 56.277 56.334 56.373 56.412 56.449 56.529 56.611 56.699 56.783 56.799 56.821 56.893 56.943 56.982 57.004 57.059 57.155 57.221 57.290 57.353 57.438 57.523 57.550 57.568 57.608 57.667 57.715 57.793 57.924 57.997 58.053 58.093 58.129 58.166 58.211 58.205 58.162 58.125 58.089 57.857 57.476 57.069 56.849
55.024 54.981 54.962 55.020 55.102 55.176 55.237 55.269 55.304 55.341 55.373 55.399 55.412 55.451 55.509 55.563 55.620 55.670 55.725 55.766 55.812 55.867 55.927 55.996 56.062 56.103 56.156 56.205 56.251 56.309 56.362 56.396 56.427 56.470 56.535 56.615 56.707 56.806 56.848 56.856 56.909 56.969 57.014 57.038 57.085 57.171 57.239 57.296 57.374 57.457 57.539 57.588 57.608 57.644 57.695 57.753 57.863 57.984 58.046 58.085 58.122 58.160 58.205 58.256 58.284 58.261 58.204 58.137 57.942 57.580 57.178 56.920
55.060 55.008 55.019 55.066 55.140 55.217 55.285 55.322 55.368 55.402 55.429 55.453 55.459 55.482 55.531 55.582 55.637 55.691 55.744 55.783 55.828 55.886 55.955 56.024 56.085 56.130 56.185 56.238 56.280 56.331 56.382 56.420 56.445 56.493 56.552 56.626 56.712 56.813 56.884 56.897 56.932 56.994 57.041 57.071 57.112 57.185 57.258 57.316 57.410 57.504 57.577 57.613 57.634 57.668 57.710 57.765 57.859 57.982 58.070 58.115 58.154 58.200 58.250 58.302 58.353 58.340 58.237 58.116 57.969 57.674 57.252 56.997
55.089 55.049 55.065 55.102 55.168 55.244 55.311 55.369 55.404 55.432 55.456 55.474 55.484 55.509 55.553 55.595 55.649 55.714 55.770 55.808 55.852 55.913 55.979 56.041 56.100 56.158 56.214 56.262 56.302 56.353 56.401 56.439 56.479 56.521 56.577 56.642 56.714 56.805 56.895 56.938 56.959 57.005 57.058 57.101 57.140 57.195 57.276 57.356 57.450 57.547 57.601 57.640 57.655 57.684 57.728 57.774 57.856 57.973 58.079 58.138 58.184 58.234 58.285 58.336 58.375 58.340 58.203 58.025 57.859 57.632 57.355 57.050
55.113 55.090 55.093 55.116 55.174 55.252 55.323 55.383 55.418 55.444 55.473 55.490 55.499 55.521 55.567 55.616 55.668 55.720 55.776 55.830 55.883 55.945 56.007 56.063 56.117 56.180 56.238 56.280 56.323 56.380 56.432 56.468 56.504 56.540 56.596 56.657 56.720 56.795 56.883 56.955 56.990 57.029 57.085 57.129 57.167 57.210 57.287 57.404 57.483 57.561 57.629 57.687 57.701 57.725 57.773 57.822 57.886 58.002 58.113 58.159 58.205 58.263 58.310 58.343 58.353 58.354 58.295 58.085 57.858 57.637 57.417 57.140
55.151 55.130 55.117 55.134 55.182 55.255 55.325 55.383 55.426 55.467 55.501 55.519 55.517 55.532 55.575 55.632 55.696 55.755 55.805 55.856 55.907 55.968 56.026 56.084 56.139 56.202 56.261 56.303 56.347 56.410 56.460 56.489 56.524 56.559 56.614 56.668 56.723 56.791 56.873 56.968 57.018 57.032 57.103 57.153 57.191 57.234 57.292 57.428 57.515 57.609 57.699 57.755 57.775 57.790 57.841 57.900 57.967 58.036 58.152 58.171 58.224 58.288 58.332 58.323 58.330 58.336 58.332 58.205 57.978 57.751 57.519 57.211
55.228 55.208 55.161 55.156 55.187 55.260 55.333 55.392 55.430 55.465 55.492 55.526 55.540 55.558 55.601 55.661 55.718 55.772 55.824 55.873 55.929 55.989 56.047 56.105 56.169 56.223 56.287 56.333 56.379 56.439 56.481 56.509 56.546 56.581 56.626 56.679 56.730 56.790 56.865 56.974 57.047 57.057 57.119 57.173 57.218 57.259 57.301 57.425 57.540 57.621 57.716 57.806 57.856 57.886 57.944 58.004 58.065 58.114 58.170 58.195 58.256 58.318 58.361 58.384 58.310 58.313 58.318 58.290 58.096 57.872 57.625 57.309
55.311 55.281 55.213 55.175 55.187 55.268 55.356 55.415 55.463 55.497 55.510 55.531 55.563 55.592 55.644 55.701 55.758 55.802 55.847 55.887 55.945 56.008 56.072 56.123 56.190 56.247 56.313 56.360 56.415 56.458 56.491 56.518 56.555 56.590 56.641 56.694 56.739 56.789 56.857 56.974 57.063 57.084 57.133 57.198 57.249 57.284 57.312 57.406 57.539 57.627 57.721 57.813 57.892 57.948 57.995 58.041 58.087 58.130 58.174 58.227 58.291 58.352 58.390 58.418 58.443 58.340 58.314 58.304 58.197 57.992 57.728 57.401
55.361 55.333 55.229 55.193 55.203 55.271 55.372 55.429 55.481 55.503 55.524 55.554 55.574 55.615 55.683 55.734 55.786 55.824 55.867 55.915 55.964 56.024 56.089 56.150 56.211 56.273 56.342 56.394 56.446 56.472 56.503 56.530 56.576 56.613 56.654 56.707 56.751 56.795 56.861 56.970 57.073 57.119 57.158 57.222 57.275 57.317 57.348 57.404 57.548 57.629 57.704 57.790 57.869 57.938 57.999 58.047 58.089 58.132 58.174 58.245 58.320 58.382 58.418 58.445 58.473 58.500 58.421 58.346 58.271 58.104 57.829 57.501
55.351 55.337 55.259 55.230 55.235 55.280 55.377 55.446 55.494 55.528 55.540 55.562 55.582 55.634 55.697 55.750 55.799 55.846 55.896 55.949 55.997 56.050 56.103 56.168 56.229 56.297 56.368 56.426 56.468 56.489 56.514 56.544 56.584 56.617 56.654 56.705 56.751 56.799 56.859 56.967 57.081 57.141 57.179 57.239 57.296 57.347 57.380 57.407 57.519 57.635 57.709 57.776 57.837 57.903 57.971 58.038 58.090 58.133 58.178 58.257 58.338 58.383 58.419 58.465 58.501 58.525 58.553 58.506 58.405 58.209 57.984 57.706
55.328 55.318 55.281 55.261 55.260 55.304 55.388 55.455 55.509 55.541 55.549 55.570 55.589 55.642 55.699 55.760 55.814 55.865 55.914 55.970 56.024 56.078 56.123 56.175 56.242 56.318 56.388 56.448 56.488 56.507 56.526 56.552 56.592 56.627 56.657 56.700 56.749 56.801 56.857 56.962 57.086 57.169 57.208 57.258 57.315 57.367 57.408 57.435 57.523 57.651 57.747 57.803 57.842 57.892 57.951 58.009 58.072 58.132 58.185 58.269 58.345 58.380 58.416 58.451 58.482 58.523 58.567 58.604 58.557 58.332 58.028 57.715
55.329 55.323 55.308 55.290 55.293 55.339 55.409 55.470 55.520 55.551 55.577 55.593 55.606 55.645 55.699 55.764 55.825 55.876 55.922 55.979 56.039 56.094 56.145 56.190 56.247 56.323 56.397 56.464 56.506 56.520 56.534 56.554 56.583 56.615 56.647 56.691 56.747 56.805 56.869 56.962 57.080 57.184 57.244 57.288 57.339 57.390 57.439 57.470 57.535 57.635 57.735 57.831 57.893 57.923 57.964 58.018 58.072 58.125 58.191 58.279 58.345 58.392 58.444 58.479 58.513 58.548 58.583 58.619 58.621 58.450 58.047 57.656
55.355 55.343 55.333 55.326 55.344 55.386 55.438 55.491 55.542 55.583 55.613 55.626 55.630 55.658 55.702 55.763 55.839 55.902 55.950 55.998 56.053 56.108 56.159 56.210 56.267 56.339 56.412 56.482 56.527 56.532 56.539 56.552 56.572 56.607 56.641 56.681 56.741 56.808 56.877 56.966 57.080 57.194 57.274 57.323 57.365 57.414 57.465 57.496 57.533 57.617 57.736 57.852 57.952 57.978 58.004 58.040 58.093 58.147 58.208 58.285 58.342 58.408 58.481 58.516 58.551 58.585 58.619 58.650 58.665 58.553 58.133 57.770
55.393 55.387 55.362 55.358 55.377 55.418 55.462 55.508 55.556 55.603 55.636 55.648 55.654 55.676 55.714 55.769 55.845 55.909 55.962 56.017 56.074 56.128 56.178 56.230 56.288 56.363 56.425 56.495 56.541 56.545 56.550 56.561 56.580 56.603 56.636 56.677 56.734 56.807 56.880 56.966 57.090 57.211 57.295 57.353 57.391 57.433 57.483 57.523 57.548 57.619 57.760 57.882 57.968 58.015 58.043 58.079 58.117 58.168 58.224 58.277 58.337 58.430 58.518 58.553 58.588 58.622 58.648 58.674 58.699 58.666 58.206 57.831
55.434 55.435 55.406 55.388 55.398 55.442 55.485 55.526 55.575 55.621 55.653 55.667 55.682 55.701 55.733 55.788 55.865 55.929 55.989 56.046 56.092 56.151 56.207 56.260 56.318 56.389 56.445 56.508 56.555 56.563 56.567 56.572 56.582 56.601 56.629 56.673 56.730 56.809 56.886 56.969 57.087 57.210 57.313 57.394 57.428 57.454 57.509 57.563 57.607 57.643 57.745 57.856 57.940 58.014 58.055 58.095 58.137 58.198 58.266 58.279 58.331 58.461 58.553 58.590 58.618 58.646 58.674 58.703 58.724 58.726 58.317 57.947
55.462 55.472 55.439 55.427 55.439 55.476 55.521 55.555 55.592 55.638 55.674 55.701 55.727 55.738 55.767 55.829 55.898 55.956 56.016 56.059 56.115 56.172 56.235 56.287 56.345 56.422 56.475 56.543 56.581 56.587 56.583 56.579 56.594 56.609 56.625 56.663 56.721 56.804 56.882 56.963 57.083 57.200 57.312 57.406 57.459 57.484 57.541 57.583 57.617 57.642 57.715 57.851 57.951 58.018 58.051 58.104 58.152 58.246 58.307 58.314 58.351 58.510 58.587 58.619 58.647 58.674 58.703 58.730 58.744 58.753 58.433 58.073
55.520 55.532 55.497 55.453 55.450 55.500 55.553 55.592 55.619 55.663 55.688 55.746 55.779 55.786 55.820 55.881 55.943 55.997 56.037 56.090 56.141 56.197 56.267 56.317 56.384 56.451 56.525 56.581 56.603 56.606 56.593 56.588 56.604 56.615 56.633 56.663 56.720 56.797 56.877 56.962 57.080 57.191 57.304 57.405 57.482 57.515 57.564 57.612 57.652 57.688 57.736 57.845 57.958 58.031 58.055 58.110 58.206 58.290 58.326 58.350 58.373 58.516 58.600 58.641 58.675 58.703 58.732 58.753 58.764 58.772 58.537 58.194
55.553 55.583 55.532 55.469 55.484 55.527 55.573 55.621 55.663 55.690 55.746 55.801 55.833 55.839 55.880 55.933 55.988 56.043 56.087 56.125 56.180 56.233 56.298 56.348 56.406 56.487 56.556 56.606 56.623 56.624 56.607 56.595 56.610 56.622 56.641 56.675 56.727 56.793 56.869 56.958 57.058 57.169 57.292 57.407 57.495 57.540 57.587 57.639 57.684 57.708 57.760 57.846 57.949 58.025 58.069 58.113 58.183 58.267 58.344 58.377 58.379 58.463 58.563 58.648 58.704 58.732 58.759 58.775 58.783 58.792 58.633 58.316
55.563 55.576 55.562 55.520 55.527 55.566 55.611 55.664 55.717 55.753 55.805 55.852 55.881 55.890 55.923 55.966 56.013 56.072 56.124 56.166 56.223 56.277 56.328 56.373 56.436 56.516 56.588 56.636 56.651 56.643 56.626 56.616 56.622 56.625 56.646 56.684 56.729 56.790 56.867 56.959 57.060 57.172 57.294 57.410 57.507 57.570 57.613 57.660 57.705 57.743 57.780 57.842 57.936 58.019 58.068 58.115 58.180 58.249 58.323 58.378 58.401 58.439 58.522 58.627 58.713 58.760 58.783 58.795 58.803 58.811 58.717 58.431
55.581 55.603 55.605 55.591 55.590 55.621 55.665 55.723 55.789 55.821 55.856 55.892 55.914 55.930 55.959 55.998 56.042 56.097 56.149 56.206 56.268 56.319 56.361 56.411 56.480 56.556 56.626 56.675 56.684 56.667 56.648 56.635 56.638 56.638 56.649 56.685 56.725 56.787 56.871 56.969 57.075 57.183 57.307 57.422 57.521 57.597 57.640 57.682 57.735 57.772 57.795 57.832 57.915 58.024 58.092 58.157 58.205 58.236 58.275 58.353 58.425 58.452 58.509 58.606 58.704 58.787 58.810 58.825 58.838 58.850 58.803 58.539
55.607 55.645 55.659 55.656 55.656 55.676 55.711 55.774 55.851 55.896 55.913 55.931 55.954 55.971 55.991 56.020 56.060 56.115 56.174 56.238 56.306 56.355 56.399 56.464 56.536 56.614 56.680 56.720 56.722 56.697 56.672 56.648 56.640 56.647 56.661 56.689 56.722 56.782 56.866 56.966 57.071 57.183 57.310 57.429 57.525 57.606 57.665 57.701 57.756 57.806 57.837 57.871 57.926 58.023 58.115 58.179 58.202 58.230 58.259 58.333 58.423 58.466 58.522 58.615 58.704 58.785 58.858 58.888 58.912 58.931 58.859 58.603
55.632 55.685 55.706 55.709 55.717 55.739 55.768 55.822 55.897 55.956 55.966 55.979 56.004 56.023 56.031 56.047 56.088 56.144 56.212 56.287 56.346 56.391 56.437 56.505 56.579 56.656 56.721 56.760 56.760 56.730 56.686 56.649 56.638 56.645 56.668 56.678 56.713 56.772 56.853 56.948 57.041 57.158 57.288 57.411 57.510 57.606 57.689 57.726 57.782 57.828 57.860 57.893 57.939 58.026 58.125 58.193 58.212 58.239 58.235 58.309 58.420 58.504 58.552 58.598 58.676 58.769 58.869 58.952 59.003 58.983 58.882 58.676
55.649 55.719 55.759 55.770 55.771 55.790 55.825 55.866 55.915 55.977 56.009 56.038 56.068 56.084 56.089 56.109 56.150 56.199 56.276 56.319 56.374 56.429 56.478 56.538 56.608 56.673 56.720 56.765 56.773 56.748 56.701 56.639 56.639 56.652 56.666 56.670 56.711 56.764 56.831 56.913 56.996 57.094 57.219 57.346 57.463 57.595 57.705 57.762 57.792 57.853 57.879 57.914 57.953 58.031 58.120 58.198 58.233 58.264 58.286 58.341 58.459 58.554 58.601 58.613 58.682 58.779 58.881 58.980 59.046 58.970 58.875 58.718
55.656 55.744 55.809 55.819 55.814 55.832 55.863 55.897 55.923 55.983 56.044 56.099 56.136 56.157 56.147 56.167 56.202 56.253 56.304 56.351 56.407 56.467 56.519 56.577 56.635 56.678 56.735 56.774 56.770 56.751 56.715 56.645 56.647 56.658 56.660 56.673 56.710 56.750 56.792 56.857 56.927 57.000 57.112 57.243 57.387 57.548 57.698 57.796 57.818 57.878 57.912 57.960 57.986 58.027 58.106 58.190 58.250 58.290 58.324 58.375 58.516 58.612 58.656 58.680 58.734 58.821 58.920 59.030 59.055 58.971 58.866 58.732
55.653 55.753 55.832 55.843 55.833 55.859 55.879 55.923 55.950 55.997 56.067 56.143 56.199 56.219 56.194 56.198 56.230 56.281 56.335 56.381 56.441 56.497 56.550 56.603 56.662 56.703 56.762 56.781 56.773 56.752 56.716 56.664 56.658 56.660 56.656 56.668 56.695 56.728 56.753 56.794 56.846 56.911 57.003 57.133 57.295 57.485 57.665 57.801 57.853 57.895 57.947 57.993 58.020 58.046 58.108 58.227 58.299 58.328 58.353 58.402 58.536 58.649 58.703 58.741 58.786 58.863 58.968 59.080 59.085 58.991 58.882 58.772
55.645 55.762 55.830 55.854 55.845 55.864 55.886 55.931 55.969 56.025 56.085 56.172 56.245 56.252 56.219 56.213 56.243 56.298 56.350 56.399 56.456 56.517 56.565 56.597 56.658 56.719 56.771 56.795 56.778 56.756 56.721 56.679 56.662 56.653 56.656 56.667 56.683 56.701 56.720 56.749 56.792 56.846 56.920 57.049 57.221 57.428 57.632 57.803 57.888 57.929 57.982 58.030 58.053 58.071 58.121 58.238 58.329 58.363 58.398 58.442 58.522 58.624 58.728 58.804 58.838 58.902 59.006 59.108 59.108 59.015 58.918 58.813
55.643 55.759 55.837 55.858 55.849 55.869 55.892 55.927 55.967 56.035 56.097 56.175 56.234 56.240 56.218 56.212 56.244 56.290 56.347 56.406 56.463 56.525 56.573 56.594 56.650 56.724 56.783 56.811 56.794 56.763 56.727 56.693 56.669 56.664 56.668 56.669 56.673 56.683 56.699 56.730 56.772 56.832 56.910 57.031 57.201 57.403 57.616 57.803 57.909 57.956 58.010 58.055 58.086 58.109 58.139 58.231 58.365 58.426 58.451 58.487 58.531 58.608 58.719 58.827 58.875 58.913 58.995 59.074 59.082 59.011 58.933 58.848
55.665 55.759 55.838 55.868 55.864 55.887 55.907 55.934 55.979 56.038 56.103 56.169 56.214 56.224 56.211 56.207 56.234 56.283 56.346 56.413 56.478 56.540 56.587 56.622 56.676 56.745 56.801 56.823 56.807 56.772 56.735 56.701 56.671 56.658 56.663 56.666 56.667 56.679 56.699 56.733 56.775 56.840 56.926 57.061 57.227 57.409 57.610 57.800 57.926 57.989 58.028 58.081 58.130 58.154 58.174 58.241 58.387 58.488 58.526 58.541 58.570 58.628 58.714 58.826 58.888 58.935 58.973 59.041 59.041 58.973 58.906 58.838
55.688 55.767 55.850 55.898 55.904 55.911 55.931 55.962 56.011 56.067 56.123 56.166 56.193 56.207 56.199 56.200 56.231 56.292 56.363 56.427 56.490 56.550 56.594 56.637 56.689 56.751 56.804 56.825 56.807 56.775 56.738 56.697 56.663 56.651 56.660 56.668 56.657 56.676 56.702 56.735 56.777 56.856 56.975 57.118 57.267 57.421 57.600 57.788 57.924 58.012 58.068 58.112 58.162 58.194 58.214 58.255 58.393 58.528 58.581 58.604 58.620 58.666 58.730 58.821 58.908 58.975 58.992 59.025 59.012 58.951 58.893 58.843
55.699 55.777 55.867 55.933 55.948 55.945 55.960 55.987 56.036 56.086 56.123 56.162 56.190 56.204 56.206 56.221 56.259 56.313 56.375 56.440 56.498 56.555 56.597 56.642 56.693 56.753 56.797 56.811 56.786 56.758 56.721 56.684 56.653 56.652 56.660 56.659 56.654 56.666 56.691 56.727 56.778 56.867 57.000 57.129 57.278 57.421 57.583 57.763 57.913 58.026 58.108 58.152 58.201 58.236 58.256 58.275 58.396 58.553 58.620 58.656 58.679 58.708 58.734 58.775 58.872 58.981 59.017 59.043 59.028 58.993 58.954 58.921
55.713 55.791 55.893 55.976 55.996 55.978 55.982 56.004 56.063 56.130 56.146 56.179 56.206 56.215 56.235 56.256 56.277 56.319 56.385 56.459 56.521 56.574 56.619 56.665 56.714 56.771 56.811 56.792 56.759 56.725 56.693 56.667 56.650 56.648 56.655 56.663 56.656 56.661 56.682 56.723 56.776 56.868 56.976 57.104 57.264 57.405 57.550 57.717 57.883 58.035 58.153 58.196 58.234 58.274 58.299 58.320 58.393 58.546 58.660 58.711 58.739 58.747 58.756 58.777 58.859 58.976 59.038 59.071 59.080 59.063 59.036 59.012
55.738 55.818 55.929 56.012 56.026 56.013 56.011 56.023 56.067 56.121 56.144 56.179 56.204 56.233 56.264 56.270 56.253 56.307 56.401 56.495 56.555 56.601 56.648 56.695 56.741 56.788 56.804 56.774 56.733 56.705 56.676 56.652 56.649 56.637 56.649 56.655 56.655 56.665 56.676 56.713 56.758 56.837 56.938 57.064 57.208 57.356 57.499 57.661 57.840 58.031 58.195 58.246 58.273 58.306 58.335 58.364 58.402 58.523 58.681 58.753 58.779 58.793 58.804 58.834 58.889 58.973 59.055 59.111 59.128 59.118 59.102 59.088
55.763 55.844 55.960 56.047 56.042 56.036 56.037 56.042 56.058 56.116 56.147 56.188 56.217 56.264 56.285 56.288 56.260 56.332 56.442 56.525 56.572 56.625 56.673 56.724 56.774 56.806 56.784 56.739 56.708 56.689 56.665 56.651 56.655 56.642 56.641 56.647 56.650 56.665 56.671 56.696 56.730 56.795 56.884 56.991 57.135 57.290 57.444 57.620 57.811 58.009 58.194 58.288 58.318 58.343 58.372 58.397 58.424 58.499 58.677 58.791 58.830 58.847 58.872 58.912 58.954 59.015 59.087 59.143 59.176 59.192 59.185 59.169
55.777 55.850 55.932 56.019 56.046 56.034 56.041 56.051 56.066 56.122 56.163 56.214 56.250 56.292 56.311 56.331 56.337 56.393 56.487 56.545 56.593 56.639 56.687 56.745 56.787 56.794 56.761 56.713 56.683 56.671 56.659 56.656 56.655 56.645 56.647 56.653 56.658 56.664 56.668 56.682 56.705 56.756 56.834 56.933 57.067 57.224 57.386 57.566 57.773 57.984 58.183 58.311 58.360 58.387 58.415 58.440 58.470 58.515 58.642 58.798 58.880 58.909 58.941 58.976 59.018 59.074 59.134 59.185 59.227 59.263 59.284 59.286
55.786 55.859 55.934 55.992 56.020 56.031 56.042 56.066 56.094 56.146 56.196 56.247 56.291 56.321 56.343 56.374 56.406 56.449 56.510 56.562 56.603 56.651 56.708 56.757 56.772 56.763 56.737 56.699 56.677 56.672 56.672 56.668 56.669 56.670 56.670 56.670 56.663 56.659 56.664 56.677 56.694 56.731 56.796 56.883 56.993 57.140 57.306 57.497 57.725 57.945 58.148 58.317 58.405 58.429 58.461 58.480 58.500 58.540 58.606 58.742 58.896 58.968 59.003 59.029 59.059 59.113 59.169 59.214 59.259 59.311 59.413 59.461
55.801 55.885 55.965 56.019 56.049 56.066 56.076 56.095 56.132 56.184 56.242 56.292 56.330 56.356 56.377 56.407 56.439 56.478 56.524 56.568 56.616 56.669 56.731 56.760 56.747 56.725 56.708 56.692 56.682 56.687 56.696 56.697 56.694 56.691 56.685 56.672 56.659 56.655 56.658 56.674 56.682 56.700 56.749 56.820 56.911 57.037 57.212 57.420 57.653 57.886 58.102 58.297 58.432 58.467 58.507 58.532 58.557 58.588 58.625 58.716 58.903 59.037 59.090 59.119 59.150 59.170 59.205 59.249 59.282 59.336 59.442 59.507
55.824 55.924 56.024 56.105 56.134 56.122 56.107 56.112 56.151 56.213 56.283 56.335 56.376 56.408 56.421 56.436 56.457 56.492 56.540 56.582 56.628 56.682 56.733 56.753 56.735 56.717 56.705 56.693 56.692 56.709 56.731 56.736 56.725 56.719 56.705 56.684 56.651 56.636 56.641 56.664 56.671 56.683 56.705 56.747 56.818 56.937 57.126 57.337 57.574 57.819 58.049 58.265 58.451 58.521 58.544 58.571 58.599 58.625 58.659 58.719 58.876 59.068 59.178 59.233 59.288 59.267 59.261 59.284 59.314 59.356 59.420 59.502
55.845 55.952 56.055 56.155 56.193 56.165 56.126 56.115 56.156 56.219 56.292 56.358 56.417 56.463 56.462 56.454 56.467 56.499 56.541 56.593 56.650 56.700 56.738 56.763 56.750 56.734 56.722 56.699 56.702 56.730 56.756 56.760 56.755 56.745 56.721 56.691 56.642 56.617 56.615 56.640 56.651 56.655 56.646 56.666 56.741 56.856 57.051 57.254 57.503 57.775 58.027 58.240 58.455 58.577 58.591 58.623 58.663 58.687 58.714 58.751 58.832 59.026 59.212 59.312 59.404 59.378 59.347 59.333 59.361 59.393 59.452 59.509
55.863 55.967 56.056 56.156 56.212 56.175 56.134 56.130 56.180 56.260 56.331 56.399 56.472 56.524 56.492 56.465 56.476 56.509 56.551 56.608 56.671 56.731 56.761 56.784 56.774 56.756 56.744 56.718 56.711 56.752 56.767 56.762 56.755 56.747 56.715 56.659 56.603 56.565 56.559 56.594 56.612 56.623 56.606 56.589 56.657 56.784 56.991 57.216 57.467 57.726 57.986 58.218 58.435 58.584 58.653 58.683 58.703 58.728 58.759 58.801 58.842 58.980 59.183 59.308 59.420 59.396 59.340 59.321 59.380 59.433 59.485 59.533
55.879 55.981 56.067 56.154 56.221 56.200 56.166 56.171 56.211 56.308 56.385 56.465 56.530 56.564 56.511 56.475 56.486 56.526 56.572 56.637 56.704 56.774 56.789 56.797 56.793 56.780 56.773 56.746 56.726 56.742 56.756 56.756 56.742 56.729 56.681 56.611 56.526 56.478 56.486 56.541 56.587 56.610 56.590 56.554 56.626 56.759 56.977 57.217 57.452 57.692 57.935 58.177 58.401 58.570 58.689 58.731 58.758 58.786 58.817 58.848 58.875 58.984 59.149 59.276 59.354 59.322 59.278 59.296 59.386 59.461 59.513 59.565
55.890 55.992 56.081 56.177 56.247 56.251 56.213 56.213 56.245 56.346 56.447 56.536 56.589 56.596 56.538 56.514 56.522 56.554 56.593 56.679 56.752 56.792 56.806 56.805 56.804 56.794 56.784 56.756 56.740 56.741 56.744 56.738 56.719 56.695 56.635 56.534 56.448 56.413 56.439 56.514 56.588 56.621 56.615 56.600 56.652 56.792 57.007 57.245 57.465 57.685 57.906 58.138 58.346 58.526 58.677 58.758 58.805 58.840 58.867 58.899 58.919 58.987 59.106 59.224 59.311 59.324 59.304 59.338 59.426 59.512 59.560 59.598
55.897 55.998 56.093 56.217 56.262 56.269 56.236 56.215 56.272 56.380 56.496 56.573 56.617 56.625 56.584 56.559 56.563 56.585 56.634 56.721 56.786 56.808 56.805 56.799 56.798 56.795 56.787 56.771 56.749 56.744 56.734 56.711 56.679 56.636 56.565 56.457 56.380 56.368 56.422 56.520 56.608 56.651 56.661 56.667 56.731 56.867 57.071 57.293 57.497 57.682 57.862 58.043 58.223 58.427 58.624 58.765 58.851 58.895 58.918 58.944 58.973 59.011 59.080 59.163 59.254 59.338 59.384 59.453 59.545 59.624 59.633 59.628
55.906 56.008 56.119 56.236 56.303 56.296 56.239 56.215 56.291 56.408 56.512 56.588 56.632 56.657 56.642 56.600 56.591 56.627 56.692 56.761 56.796 56.792 56.766 56.757 56.766 56.772 56.774 56.778 56.758 56.738 56.714 56.683 56.636 56.569 56.490 56.392 56.330 56.329 56.400 56.516 56.617 56.675 56.705 56.748 56.826 56.961 57.147 57.338 57.499 57.637 57.764 57.897 58.067 58.293 58.540 58.742 58.881 58.943 58.979 59.000 59.038 59.078 59.113 59.158 59.226 59.341 59.460 59.569 59.671 59.744 59.712 59.665
55.930 56.021 56.138 56.271 56.349 56.348 56.276 56.248 56.312 56.421 56.526 56.618 56.687 56.713 56.691 56.640 56.616 56.647 56.712 56.766 56.778 56.741 56.678 56.648 56.673 56.706 56.728 56.744 56.735 56.718 56.687 56.653 56.599 56.515 56.440 56.368 56.307 56.308 56.375 56.487 56.589 56.661 56.723 56.793 56.885 57.029 57.190 57.339 57.450 57.543 57.643 57.780 57.951 58.176 58.444 58.687 58.899 59.004 59.043 59.073 59.104 59.143 59.171 59.205 59.249 59.314 59.476 59.620 59.699 59.802 59.793 59.694
55.955 56.032 56.135 56.262 56.357 56.384 56.331 56.289 56.335 56.447 56.577 56.696 56.785 56.788 56.724 56.662 56.650 56.683 56.733 56.762 56.734 56.657 56.569 56.509 56.527 56.587 56.623 56.646 56.656 56.655 56.643 56.624 56.583 56.510 56.436 56.378 56.340 56.342 56.390 56.475 56.563 56.645 56.726 56.805 56.893 57.053 57.210 57.330 57.412 57.491 57.587 57.714 57.868 58.055 58.336 58.604 58.859 59.041 59.086 59.124 59.171 59.207 59.238 59.273 59.320 59.351 59.434 59.602 59.711 59.828 59.799 59.724
55.971 56.047 56.140 56.265 56.374 56.405 56.366 56.322 56.346 56.475 56.643 56.794 56.853 56.808 56.732 56.676 56.686 56.713 56.747 56.745 56.694 56.582 56.467 56.390 56.398 56.464 56.521 56.559 56.582 56.596 56.596 56.599 56.586 56.547 56.485 56.434 56.415 56.422 56.449 56.499 56.561 56.640 56.736 56.810 56.908 57.072 57.247 57.371 57.440 57.510 57.560 57.674 57.803 57.968 58.234 58.520 58.811 59.035 59.149 59.185 59.234 59.275 59.305 59.339 59.385 59.410 59.464 59.554 59.679 59.793 59.757 59.765
56.006 56.085 56.175 56.283 56.399 56.443 56.400 56.332 56.336 56.465 56.661 56.834 56.841 56.811 56.761 56.705 56.711 56.735 56.767 56.756 56.694 56.539 56.389 56.309 56.318 56.380 56.423 56.462 56.493 56.531 56.547 56.577 56.603 56.600 56.558 56.526 56.524 56.554 56.563 56.571 56.605 56.672 56.758 56.831 56.925 57.097 57.298 57.444 57.511 57.567 57.601 57.700 57.798 57.952 58.167 58.451 58.766 59.011 59.181 59.256 59.305 59.332 59.357 59.397 59.443 59.471 59.524 59.587 59.665 59.741 59.781 59.816
56.057 56.135 56.216 56.319 56.435 56.479 56.421 56.334 56.331 56.464 56.658 56.851 56.880 56.844 56.769 56.720 56.725 56.757 56.794 56.783 56.715 56.562 56.408 56.314 56.306 56.345 56.376 56.404 56.446 56.481 56.519 56.577 56.640 56.659 56.653 56.630 56.638 56.664 56.671 56.669 56.679 56.713 56.773 56.861 56.949 57.119 57.323 57.491 57.587 57.644 57.692 57.763 57.843 57.964 58.143 58.415 58.735 59.002 59.197 59.324 59.367 59.385 59.409 59.454 59.498 59.541 59.587 59.638 59.689 59.752 59.816 59.864
56.099 56.177 56.251 56.356 56.477 56.512 56.450 56.359 56.347 56.495 56.687 56.850 56.868 56.848 56.762 56.742 56.742 56.784 56.831 56.834 56.767 56.638 56.498 56.397 56.365 56.367 56.378 56.403 56.430 56.477 56.529 56.605 56.677 56.719 56.730 56.735 56.727 56.721 56.719 56.723 56.726 56.746 56.788 56.865 56.958 57.113 57.315 57.506 57.646 57.729 57.767 57.811 57.872 57.979 58.149 58.401 58.710 58.994 59.210 59.353 59.402 59.426 59.461 59.503 59.559 59.614 59.661 59.715 59.768 59.812 59.858 59.906
56.121 56.197 56.284 56.386 56.501 56.546 56.500 56.413 56.376 56.473 56.652 56.771 56.821 56.833 56.782 56.761 56.760 56.800 56.858 56.887 56.850 56.745 56.616 56.509 56.454 56.423 56.417 56.443 56.469 56.506 56.562 56.633 56.695 56.743 56.767 56.772 56.754 56.735 56.727 56.733 56.740 56.763 56.800 56.861 56.955 57.104 57.304 57.520 57.700 57.813 57.857 57.884 57.917 57.999 58.156 58.386 58.675 58.954 59.189 59.367 59.449 59.480 59.508 59.548 59.606 59.671 59.733 59.793 59.838 59.873 59.912 59.955
56.134 56.206 56.298 56.411 56.512 56.571 56.544 56.460 56.400 56.454 56.591 56.735 56.797 56.814 56.784 56.773 56.788 56.829 56.885 56.908 56.893 56.832 56.723 56.617 56.544 56.493 56.474 56.486 56.498 56.529 56.588 56.647 56.692 56.731 56.766 56.774 56.758 56.741 56.730 56.732 56.742 56.760 56.803 56.880 56.980 57.119 57.305 57.516 57.684 57.764 57.868 57.977 58.003 58.043 58.157 58.363 58.623 58.884 59.111 59.320 59.460 59.520 59.556 59.590 59.644 59.708 59.779 59.842 59.889 59.934 59.968 60.007
56.144 56.219 56.312 56.418 56.525 56.603 56.587 56.499 56.428 56.460 56.577 56.706 56.783 56.804 56.786 56.781 56.804 56.840 56.890 56.925 56.924 56.879 56.790 56.687 56.605 56.541 56.510 56.506 56.512 56.545 56.598 56.641 56.676 56.703 56.737 56.762 56.760 56.751 56.741 56.740 56.744 56.761 56.829 56.937 57.043 57.152 57.256 57.382 57.537 57.633 57.825 58.013 58.102 58.130 58.187 58.331 58.543 58.775 58.996 59.211 59.370 59.478 59.566 59.616 59.668 59.732 59.792 59.848 59.918 59.965 60.008 60.058
56.145 56.226 56.323 56.425 56.524 56.609 56.617 56.537 56.461 56.478 56.594 56.718 56.789 56.794 56.783 56.786 56.810 56.850 56.900 56.945 56.950 56.907 56.820 56.721 56.635 56.564 56.530 56.519 56.535 56.565 56.608 56.642 56.673 56.691 56.715 56.742 56.761 56.764 56.753 56.750 56.749 56.775 56.857 56.976 57.076 57.138 57.126 57.182 57.360 57.541 57.761 57.982 58.184 58.230 58.252 58.313 58.473 58.666 58.877 59.086 59.267 59.410 59.533 59.634 59.691 59.730 59.800 59.862 59.926 59.986 60.034 60.095
56.154 56.239 56.328 56.424 56.525 56.623 56.653 56.579 56.502 56.514 56.621 56.743 56.805 56.809 56.790 56.793 56.822 56.871 56.924 56.974 56.985 56.935 56.833 56.731 56.643 56.573 56.545 56.532 56.559 56.585 56.633 56.666 56.682 56.690 56.706 56.734 56.761 56.762 56.758 56.754 56.753 56.791 56.877 57.005 57.099 57.072 57.006 57.088 57.259 57.481 57.702 57.925 58.224 58.339 58.343 58.333 58.432 58.592 58.786 58.961 59.165 59.343 59.487 59.635 59.734 59.754 59.780 59.826 59.914 59.996 60.053 60.115
56.176 56.255 56.340 56.422 56.540 56.642 56.679 56.607 56.529 56.529 56.597 56.710 56.773 56.809 56.812 56.817 56.841 56.895 56.955 57.007 57.016 56.935 56.837 56.736 56.652 56.588 56.558 56.544 56.572 56.612 56.666 56.695 56.697 56.691 56.698 56.711 56.734 56.746 56.752 56.755 56.758 56.799 56.896 57.039 57.153 57.056 57.017 57.080 57.220 57.426 57.686 57.973 58.289 58.439 58.437 58.400 58.447 58.561 58.728 58.902 59.102 59.302 59.469 59.637 59.762 59.814 59.791 59.804 59.886 59.977 60.055 60.128
56.195 56.263 56.350 56.438 56.536 56.645 56.692 56.610 56.502 56.496 56.538 56.624 56.713 56.801 56.824 56.841 56.866 56.917 56.974 57.025 57.025 56.913 56.822 56.735 56.654 56.596 56.563 56.553 56.581 56.629 56.681 56.716 56.711 56.692 56.688 56.694 56.707 56.727 56.744 56.760 56.764 56.810 56.919 57.091 57.195 57.139 57.074 57.097 57.202 57.429 57.721 58.045 58.384 58.520 58.507 58.464 58.487 58.577 58.725 58.902 59.117 59.325 59.504 59.682 59.819 59.886 59.879 59.848 59.872 59.952 60.039 60.119
56.204 56.260 56.341 56.447 56.560 56.664 56.701 56.624 56.482 56.464 56.512 56.576 56.695 56.778 56.824 56.862 56.891 56.938 56.987 57.016 56.988 56.905 56.817 56.733 56.651 56.590 56.565 56.560 56.580 56.629 56.680 56.724 56.724 56.704 56.691 56.690 56.705 56.726 56.741 56.766 56.778 56.826 56.929 57.101 57.199 57.182 57.131 57.125 57.207 57.454 57.833 58.205 58.481 58.578 58.546 58.497 58.519 58.612 58.766 58.962 59.185 59.421 59.611 59.778 59.916 59.971 59.958 59.920 59.901 59.944 60.021 60.093
56.205 56.261 56.339 56.473 56.587 56.675 56.714 56.652 56.509 56.465 56.506 56.599 56.710 56.786 56.836 56.875 56.909 56.951 56.990 57.002 56.972 56.903 56.814 56.734 56.654 56.590 56.564 56.560 56.584 56.618 56.666 56.723 56.737 56.722 56.712 56.715 56.725 56.732 56.742 56.766 56.789 56.833 56.933 57.101 57.234 57.248 57.181 57.153 57.228 57.467 57.858 58.229 58.477 58.578 58.564 58.525 58.554 58.660 58.835 59.060 59.289 59.505 59.699 59.866 60.002 60.057 60.034 60.013 59.988 59.979 60.020 60.075
56.206 56.263 56.346 56.548 56.669 56.705 56.725 56.676 56.544 56.476 56.508 56.599 56.709 56.789 56.837 56.880 56.914 56.958 57.004 57.019 56.993 56.926 56.841 56.754 56.674 56.616 56.590 56.585 56.586 56.612 56.660 56.719 56.742 56.725 56.712 56.713 56.730 56.737 56.743 56.767 56.793 56.831 56.933 57.110 57.309 57.388 57.275 57.185 57.240 57.384 57.677 58.068 58.400 58.565 58.589 58.558 58.596 58.714 58.912 59.149 59.351 59.533 59.720 59.899 60.023 60.075 60.069 60.054 60.039 60.023 60.036 60.084
56.204 56.264 56.362 56.512 56.619 56.678 56.707 56.673 56.561 56.490 56.517 56.588 56.679 56.769 56.830 56.872 56.909 56.957 57.007 57.037 57.040 56.986 56.896 56.798 56.712 56.649 56.609 56.597 56.603 56.622 56.658 56.714 56.745 56.731 56.720 56.718 56.730 56.737 56.748 56.768 56.793 56.835 56.952 57.141 57.366 57.477 57.365 57.225 57.256 57.333 57.525 57.910 58.353 58.571 58.626 58.600 58.638 58.740 58.939 59.173 59.376 59.532 59.693 59.879 60.004 60.070 60.080 60.069 60.049 60.060 60.075 60.108
56.205 56.271 56.365 56.458 56.528 56.599 56.662 56.651 56.562 56.499 56.529 56.590 56.655 56.740 56.813 56.867 56.915 56.970 57.029 57.064 57.080 57.040 56.972 56.863 56.761 56.678 56.621 56.600 56.612 56.625 56.658 56.713 56.757 56.750 56.740 56.729 56.739 56.747 56.758 56.769 56.796 56.856 56.998 57.193 57.430 57.592 57.500 57.327 57.299 57.341 57.507 57.878 58.367 58.614 58.682 58.668 58.693 58.767 58.947 59.167 59.367 59.523 59.649 59.824 59.959 60.050 60.097 60.096 60.103 60.099 60.125 60.121
56.207 56.272 56.349 56.408 56.446 56.529 56.620 56.639 56.584 56.545 56.563 56.598 56.653 56.725 56.802 56.858 56.923 56.998 57.068 57.094 57.112 57.093 57.040 56.926 56.801 56.692 56.632 56.607 56.625 56.652 56.680 56.727 56.784 56.780 56.760 56.752 56.760 56.768 56.778 56.786 56.803 56.867 57.009 57.212 57.438 57.660 57.598 57.467 57.341 57.393 57.582 57.976 58.452 58.679 58.742 58.750 58.766 58.819 58.976 59.174 59.372 59.517 59.622 59.770 59.919 60.012 60.081 60.112 60.154 60.190 60.194 60.146
56.207 56.277 56.322 56.354 56.390 56.457 56.573 56.626 56.618 56.601 56.588 56.606 56.675 56.744 56.816 56.867 56.954 57.035 57.105 57.119 57.123 57.109 57.033 56.893 56.783 56.641 56.642 56.646 56.658 56.708 56.763 56.798 56.836 56.813 56.779 56.775 56.795 56.793 56.801 56.807 56.817 56.875 56.995 57.198 57.451 57.669 57.717 57.535 57.417 57.505 57.817 58.268 58.641 58.791 58.818 58.830 58.852 58.912 59.038 59.208 59.373 59.505 59.615 59.742 59.860 59.969 60.051 60.167 60.285 60.326 60.274 60.206
56.185 56.274 56.303 56.316 56.372 56.447 56.555 56.614 56.610 56.603 56.589 56.616 56.691 56.751 56.839 56.909 57.009 57.075 57.123 57.097 57.088 57.026 56.842 56.680 56.576 56.476 56.516 56.649 56.713 56.811 56.880 56.909 56.900 56.855 56.819 56.804 56.822 56.830 56.829 56.831 56.844 56.881 56.968 57.155 57.389 57.615 57.689 57.614 57.581 57.727 58.104 58.519 58.815 58.912 58.925 58.922 58.940 59.007 59.120 59.256 59.400 59.517 59.624 59.724 59.813 59.913 60.036 60.171 60.283 60.342 60.335 60.285
56.177 56.270 56.318 56.350 56.447 56.535 56.613 56.625 56.597 56.587 56.586 56.626 56.695 56.777 56.879 56.967 57.052 57.109 57.122 57.028 56.911 56.758 56.566 56.422 56.333 56.320 56.359 56.539 56.749 56.912 56.991 57.001 56.959 56.899 56.862 56.846 56.854 56.862 56.858 56.864 56.878 56.905 56.961 57.111 57.335 57.559 57.651 57.747 57.875 58.068 58.361 58.676 58.895 58.974 59.006 59.016 59.032 59.095 59.196 59.298 59.406 59.508 59.608 59.716 59.822 59.933 60.046 60.171 60.270 60.307 60.336 60.330
56.217 56.312 56.405 56.458 56.557 56.657 56.714 56.685 56.625 56.599 56.598 56.639 56.711 56.805 56.922 57.018 57.095 57.139 57.112 56.932 56.614 56.404 56.335 56.291 56.276 56.284 56.339 56.497 56.742 56.957 57.051 57.044 56.984 56.926 56.888 56.879 56.889 56.897 56.902 56.908 56.917 56.935 56.972 57.074 57.249 57.463 57.666 57.871 58.078 58.271 58.491 58.721 58.891 58.977 59.036 59.072 59.099 59.151 59.242 59.336 59.415 59.498 59.604 59.738 59.868 59.987 60.088 60.166 60.230 60.287 60.340 60.356
56.288 56.392 56.507 56.585 56.679 56.771 56.814 56.769 56.686 56.639 56.629 56.670 56.756 56.862 56.976 57.077 57.142 57.159 57.062 56.775 56.447 56.311 56.295 56.286 56.300 56.352 56.456 56.634 56.853 56.997 57.051 57.037 56.977 56.933 56.906 56.899 56.907 56.919 56.928 56.936 56.946 56.962 56.996 57.067 57.186 57.370 57.598 57.827 58.057 58.259 58.454 58.642 58.783 58.912 59.012 59.071 59.131 59.188 59.278 59.375 59.441 59.514 59.632 59.795 59.938 60.033 60.114 60.214 60.259 60.304 60.345 60.380
56.396 56.492 56.594 56.699 56.789 56.860 56.874 56.827 56.754 56.696 56.679 56.714 56.804 56.923 57.045 57.136 57.180 57.158 56.966 56.607 56.359 56.304 56.318 56.366 56.436 56.554 56.706 56.868 57.010 57.034 57.030 57.005 56.955 56.925 56.915 56.910 56.916 56.925 56.937 56.947 56.958 56.981 57.011 57.064 57.148 57.290 57.516 57.745 57.978 58.166 58.337 58.514 58.656 58.809 58.944 59.029 59.124 59.216 59.313 59.413 59.478 59.549 59.689 59.852 59.964 60.024 60.111 60.209 60.259 60.316 60.355 60.401
56.506 56.607 56.695 56.793 56.864 56.906 56.910 56.871 56.811 56.758 56.733 56.757 56.851 56.969 57.087 57.184 57.223 57.156 56.904 56.520 56.341 56.322 56.402 56.505 56.617 56.787 57.009 57.094 57.086 57.061 57.021 56.977 56.939 56.918 56.915 56.913 56.923 56.940 56.949 56.955 56.965 56.989 57.010 57.054 57.131 57.247 57.470 57.690 57.895 58.059 58.225 58.399 58.545 58.714 58.858 58.979 59.104 59.229 59.344 59.441 59.508 59.601 59.762 59.889 59.968 60.001 60.059 60.114 60.171 60.246 60.304 60.378
56.591 56.703 56.787 56.851 56.895 56.922 56.932 56.913 56.871 56.828 56.797 56.806 56.901 57.014 57.115 57.205 57.260 57.190 56.962 56.558 56.367 56.359 56.493 56.632 56.787 56.961 57.198 57.175 57.118 57.062 57.011 56.964 56.937 56.921 56.915 56.921 56.938 56.945 56.950 56.967 56.979 56.998 57.023 57.064 57.123 57.212 57.409 57.604 57.806 57.978 58.143 58.343 58.479 58.647 58.809 58.970 59.135 59.271 59.395 59.476 59.539 59.676 59.821 59.945 60.017 60.025 60.053 60.079 60.112 60.148 60.222 60.304
56.681 56.771 56.838 56.877 56.917 56.949 56.959 56.961 56.941 56.906 56.886 56.874 56.935 57.037 57.138 57.214 57.286 57.255 57.091 56.651 56.389 56.377 56.544 56.780 56.955 57.125 57.263 57.183 57.120 57.060 57.010 56.964 56.935 56.920 56.922 56.938 56.943 56.951 56.962 56.974 56.986 57.012 57.041 57.078 57.133 57.207 57.361 57.538 57.744 57.945 58.127 58.320 58.488 58.647 58.824 59.022 59.205 59.342 59.440 59.496 59.588 59.730 59.884 60.020 60.090 60.092 60.081 60.094 60.112 60.135 60.195 60.263
56.744 56.803 56.855 56.895 56.941 56.987 57.012 57.014 57.008 56.978 56.958 56.948 56.977 57.054 57.146 57.237 57.323 57.335 57.224 56.801 56.460 56.402 56.490 56.796 57.093 57.229 57.230 57.158 57.109 57.054 57.015 56.970 56.943 56.926 56.935 56.951 56.948 56.952 56.968 56.975 56.987 57.020 57.052 57.094 57.151 57.233 57.358 57.531 57.749 57.977 58.187 58.389 58.565 58.728 58.920 59.132 59.291 59.396 59.467 59.528 59.634 59.790 59.951 60.084 60.141 60.140 60.119 60.132 60.163 60.175 60.202 60.258
56.776 56.809 56.863 56.924 56.975 57.021 57.045 57.049 57.059 57.033 57.017 57.010 57.035 57.078 57.162 57.258 57.352 57.399 57.355 57.057 56.636 56.497 56.562 56.858 57.188 57.244 57.184 57.128 57.097 57.045 57.018 56.985 56.954 56.938 56.943 56.952 56.948 56.959 56.967 56.978 56.997 57.028 57.064 57.110 57.161 57.238 57.374 57.564 57.803 58.054 58.281 58.493 58.686 58.896 59.086 59.241 59.354 59.427 59.489 59.554 59.664 59.822 59.978 60.105 60.162 60.158 60.162 60.180 60.189 60.207 60.222 60.258
56.780 56.815 56.873 56.946 57.003 57.058 57.092 57.112 57.106 57.069 57.059 57.051 57.058 57.100 57.183 57.282 57.380 57.448 57.472 57.337 56.987 56.769 56.857 57.124 57.270 57.239 57.165 57.126 57.101 57.055 57.029 56.998 56.964 56.947 56.945 56.952 56.955 56.954 56.962 56.982 57.009 57.041 57.080 57.126 57.172 57.253 57.399 57.603 57.855 58.122 58.376 58.625 58.862 59.070 59.218 59.309 59.391 59.466 59.521 59.583 59.676 59.809 59.972 60.108 60.172 60.161 60.156 60.183 60.218 60.237 60.256 60.277
56.795 56.835 56.893 56.960 57.011 57.058 57.116 57.147 57.143 57.103 57.084 57.082 57.079 57.126 57.216 57.308 57.392 57.477 57.549 57.556 57.432 57.317 57.327 57.380 57.365 57.273 57.188 57.150 57.121 57.078 57.050 57.022 56.984 56.961 56.952 56.955 56.956 56.958 56.971 56.991 57.023 57.057 57.100 57.145 57.186 57.266 57.418 57.612 57.859 58.136 58.421 58.701 58.961 59.164 59.275 59.353 59.445 59.545 59.602 59.628 59.698 59.804 59.969 60.114 60.169 60.165 60.158 60.166 60.201 60.241 60.258 60.262
56.812 56.855 56.912 56.975 57.029 57.077 57.115 57.124 57.122 57.126 57.142 57.149 57.174 57.199 57.238 57.312 57.392 57.479 57.569 57.650 57.661 57.629 57.597 57.520 57.427 57.320 57.245 57.199 57.150 57.105 57.078 57.045 57.008 56.982 56.962 56.960 56.965 56.972 56.982 57.001 57.037 57.078 57.125 57.166 57.212 57.291 57.413 57.573 57.792 58.071 58.408 58.727 59.009 59.193 59.285 59.388 59.499 59.611 59.661 59.660 59.688 59.802 59.970 60.103 60.154 60.158 60.161 60.167 60.175 60.158 60.169 60.191
56.799 56.844 56.903 56.970 57.038 57.081 57.093 57.082 57.082 57.135 57.210 57.192 57.207 57.204 57.246 57.316 57.385 57.466 57.561 57.657 57.728 57.731 57.674 57.562 57.443 57.340 57.279 57.233 57.173 57.129 57.101 57.069 57.033 56.997 56.966 56.959 56.974 56.981 56.992 57.011 57.043 57.101 57.155 57.202 57.266 57.321 57.370 57.458 57.668 57.950 58.356 58.749 59.060 59.226 59.284 59.392 59.518 59.620 59.666 59.662 59.690 59.780 59.963 60.082 60.133 60.151 60.190 60.176 60.115 60.084 60.097 60.148
56.747 56.801 56.861 56.915 56.991 57.022 56.991 57.007 57.056 57.131 57.216 57.209 57.207 57.215 57.278 57.346 57.394 57.457 57.541 57.631 57.688 57.719 57.653 57.543 57.435 57.331 57.276 57.238 57.193 57.163 57.130 57.091 57.047 57.000 56.964 56.958 56.983 56.996 56.997 57.024 57.059 57.120 57.183 57.243 57.323 57.354 57.329 57.336 57.559 57.838 58.293 58.768 59.080 59.232 59.311 59.407 59.523 59.602 59.649 59.642 59.681 59.759 59.926 60.055 60.098 60.145 60.187 60.143 60.074 60.049 60.096 60.182
56.700 56.752 56.817 56.869 56.940 56.969 56.989 57.018 57.050 57.111 57.161 57.190 57.207 57.219 57.275 57.367 57.419 57.463 57.534 57.612 57.654 57.667 57.631 57.524 57.411 57.316 57.266 57.227 57.197 57.179 57.130 57.102 57.051 57.002 56.964 56.954 56.977 56.989 57.000 57.029 57.080 57.134 57.201 57.287 57.390 57.394 57.342 57.338 57.517 57.811 58.266 58.758 59.077 59.240 59.310 59.398 59.503 59.578 59.626 59.641 59.672 59.738 59.900 60.034 60.093 60.127 60.130 60.083 60.051 60.070 60.147 60.283
56.665 56.722 56.791 56.846 56.917 56.939 56.963 57.005 57.052 57.116 57.132 57.137 57.160 57.220 57.282 57.375 57.443 57.493 57.550 57.598 57.640 57.643 57.607 57.503 57.391 57.309 57.254 57.219 57.190 57.173 57.132 57.094 57.047 56.998 56.963 56.952 56.975 56.996 57.006 57.037 57.092 57.148 57.225 57.323 57.430 57.445 57.395 57.401 57.563 57.867 58.299 58.769 59.091 59.252 59.317 59.389 59.472 59.537 59.582 59.623 59.679 59.755 59.894 60.047 60.109 60.118 60.068 60.022 60.058 60.122 60.217 60.327
56.624 56.698 56.777 56.831 56.881 56.916 56.964 57.013 57.071 57.149 57.150 57.146 57.172 57.247 57.345 57.395 57.444 57.524 57.572 57.590 57.630 57.638 57.578 57.486 57.379 57.298 57.236 57.200 57.178 57.157 57.116 57.072 57.033 56.994 56.964 56.959 56.975 56.993 57.008 57.045 57.097 57.157 57.235 57.334 57.447 57.478 57.458 57.508 57.678 57.991 58.395 58.814 59.121 59.276 59.336 59.382 59.449 59.512 59.561 59.617 59.686 59.761 59.872 59.999 60.055 60.044 60.008 60.026 60.141 60.224 60.268 60.344
56.588 56.667 56.748 56.811 56.854 56.901 56.949 57.021 57.099 57.168 57.182 57.176 57.190 57.267 57.353 57.440 57.487 57.547 57.602 57.621 57.627 57.608 57.557 57.471 57.368 57.275 57.215 57.179 57.157 57.129 57.084 57.036 57.006 56.985 56.967 56.965 56.973 56.991 57.011 57.045 57.101 57.159 57.229 57.319 57.425 57.497 57.545 57.656 57.847 58.128 58.467 58.812 59.091 59.268 59.341 59.377 59.439 59.506 59.559 59.612 59.682 59.744 59.813 59.905 59.955 59.961 59.974 60.030 60.168 60.277 60.267 60.323
56.549 56.623 56.708 56.791 56.846 56.896 56.955 57.032 57.117 57.189 57.219 57.209 57.219 57.290 57.382 57.460 57.523 57.586 57.624 57.636 57.623 57.582 57.530 57.439 57.324 57.233 57.180 57.143 57.111 57.083 57.046 57.005 56.980 56.971 56.964 56.965 56.972 56.995 57.009 57.039 57.095 57.150 57.218 57.298 57.398 57.514 57.631 57.793 57.974 58.195 58.455 58.749 59.030 59.224 59.332 59.377 59.432 59.502 59.554 59.610 59.681 59.734 59.782 59.835 59.888 59.931 59.996 60.081 60.216 60.307 60.275 60.322
56.516 56.591 56.679 56.771 56.850 56.913 56.991 57.096 57.161 57.206 57.239 57.235 57.258 57.324 57.407 57.476 57.538 57.600 57.620 57.609 57.558 57.478 57.414 57.341 57.242 57.176 57.132 57.091 57.061 57.039 57.009 56.979 56.961 56.966 56.962 56.967 56.969 56.988 57.004 57.030 57.086 57.132 57.202 57.288 57.391 57.521 57.665 57.830 57.992 58.156 58.347 58.595 58.898 59.116 59.290 59.362 59.420 59.511 59.558 59.614 59.693 59.748 59.771 59.810 59.869 59.945 60.064 60.153 60.248 60.296 60.303 60.353
56.500 56.581 56.667 56.762 56.847 56.929 57.034 57.136 57.193 57.212 57.230 57.225 57.274 57.347 57.422 57.488 57.547 57.593 57.580 57.532 57.463 57.364 57.273 57.208 57.133 57.103 57.076 57.047 57.015 57.003 56.987 56.971 56.962 56.969 56.968 56.971 56.982 56.987 57.010 57.033 57.073 57.116 57.182 57.275 57.388 57.528 57.651 57.763 57.889 58.025 58.201 58.435 58.737 58.978 59.217 59.339 59.438 59.519 59.563 59.625 59.698 59.751 59.782 59.810 59.868 59.990 60.150 60.241 60.328 60.289 60.315 60.360
56.487 56.572 56.666 56.769 56.872 56.977 57.064 57.160 57.203 57.215 57.231 57.218 57.275 57.334 57.410 57.502 57.559 57.582 57.525 57.429 57.330 57.222 57.114 57.072 57.028 57.032 57.028 57.012 56.988 56.982 56.980 56.974 56.969 56.977 56.984 56.990 56.999 56.998 57.016 57.027 57.060 57.101 57.161 57.264 57.390 57.515 57.632 57.682 57.750 57.851 58.022 58.227 58.538 58.839 59.143 59.333 59.459 59.522 59.577 59.644 59.727 59.772 59.786 59.811 59.879 60.017 60.183 60.271 60.316 60.280 60.301 60.345
56.496 56.571 56.664 56.786 56.912 57.032 57.111 57.137 57.166 57.202 57.239 57.234 57.271 57.342 57.435 57.510 57.558 57.551 57.470 57.304 57.184 57.064 56.959 56.950 56.983 57.005 57.009 56.997 56.976 56.980 56.980 56.986 56.980 56.993 57.005 57.019 57.021 57.011 57.021 57.027 57.054 57.096 57.154 57.253 57.375 57.502 57.589 57.610 57.654 57.711 57.855 58.064 58.377 58.731 59.065 59.303 59.445 59.530 59.601 59.684 59.737 59.759 59.773 59.796 59.908 60.069 60.199 60.265 60.332 60.313 60.297 60.334
56.468 56.561 56.668 56.775 56.914 57.061 57.119 57.148 57.178 57.200 57.230 57.243 57.302 57.370 57.448 57.511 57.544 57.486 57.383 57.197 57.056 56.934 56.859 56.892 56.991 57.024 57.022 57.010 56.996 56.992 56.991 56.992 56.994 57.009 57.028 57.045 57.040 57.029 57.034 57.035 57.053 57.096 57.155 57.251 57.376 57.482 57.565 57.596 57.603 57.630 57.759 57.965 58.284 58.674 59.024 59.281 59.435 59.535 59.626 59.716 59.750 59.752 59.764 59.797 59.944 60.139 60.232 60.262 60.282 60.274 60.299 60.350
56.471 56.565 56.686 56.778 56.903 57.037 57.131 57.170 57.189 57.208 57.213 57.234 57.330 57.475 57.559 57.581 57.563 57.457 57.316 57.132 56.980 56.878 56.837 56.912 57.035 57.078 57.067 57.048 57.026 57.010 57.009 57.004 56.999 57.018 57.043 57.058 57.058 57.038 57.036 57.044 57.060 57.101 57.165 57.263 57.385 57.509 57.604 57.621 57.595 57.615 57.754 57.974 58.281 58.667 59.031 59.295 59.442 59.537 59.649 59.742 59.773 59.762 59.757 59.806 59.974 60.170 60.241 60.255 60.278 60.295 60.308 60.349
56.509 56.589 56.691 56.794 56.895 57.006 57.123 57.179 57.196 57.209 57.199 57.226 57.340 57.524 57.673 57.695 57.622 57.479 57.313 57.122 56.955 56.866 56.869 56.967 57.087 57.131 57.120 57.100 57.064 57.029 57.016 57.010 57.010 57.028 57.057 57.072 57.071 57.059 57.050 57.057 57.074 57.116 57.181 57.274 57.389 57.515 57.623 57.657 57.644 57.685 57.838 58.070 58.381 58.759 59.097 59.337 59.475 59.553 59.647 59.716 59.760 59.758 59.744 59.833 60.016 60.182 60.227 60.237 60.251 60.272 60.308 60.346
56.553 56.640 56.709 56.798 56.896 57.003 57.112 57.173 57.208 57.212 57.185 57.197 57.294 57.472 57.681 57.777 57.694 57.524 57.342 57.154 56.989 56.922 56.951 57.043 57.139 57.179 57.168 57.138 57.095 57.048 57.021 57.018 57.026 57.042 57.068 57.092 57.092 57.082 57.072 57.079 57.097 57.139 57.205 57.294 57.404 57.541 57.665 57.733 57.746 57.824 57.996 58.242 58.568 58.917 59.222 59.413 59.519 59.580 59.636 59.674 59.719 59.740 59.754 59.828 60.035 60.189 60.212 60.220 60.248 60.280 60.300 60.355
56.585 56.668 56.731 56.808 56.906 57.013 57.112 57.194 57.225 57.206 57.168 57.163 57.235 57.379 57.574 57.730 57.709 57.573 57.389 57.211 57.066 57.007 57.056 57.149 57.203 57.217 57.200 57.159 57.112 57.069 57.040 57.035 57.045 57.063 57.088 57.115 57.117 57.105 57.097 57.114 57.136 57.174 57.241 57.333 57.447 57.591 57.731 57.824 57.886 58.002 58.198 58.465 58.800 59.108 59.381 59.513 59.556 59.591 59.630 59.652 59.707 59.742 59.769 59.834 60.116 60.206 60.240 60.238 60.273 60.308 60.323 60.392
56.589 56.662 56.734 56.817 56.923 57.032 57.128 57.204 57.236 57.209 57.180 57.156 57.201 57.318 57.504 57.683 57.679 57.592 57.443 57.293 57.179 57.125 57.165 57.239 57.245 57.236 57.207 57.166 57.122 57.086 57.060 57.062 57.073 57.093 57.119 57.150 57.157 57.152 57.147 57.163 57.182 57.222 57.292 57.377 57.506 57.662 57.795 57.908 58.004 58.138 58.374 58.663 58.985 59.289 59.499 59.568 59.576 59.594 59.620 59.652 59.700 59.758 59.785 59.827 60.143 60.225 60.287 60.274 60.278 60.305 60.362 60.449
56.598 56.670 56.737 56.818 56.926 57.034 57.154 57.228 57.275 57.250 57.212 57.193 57.217 57.332 57.497 57.639 57.636 57.583 57.480 57.374 57.283 57.231 57.232 57.262 57.252 57.237 57.200 57.168 57.132 57.100 57.075 57.098 57.107 57.127 57.155 57.195 57.201 57.207 57.201 57.221 57.244 57.286 57.354 57.440 57.571 57.717 57.812 57.943 58.050 58.216 58.467 58.740 59.040 59.327 59.516 59.579 59.586 59.602 59.616 59.668 59.737 59.793 59.823 59.845 60.063 60.207 60.283 60.277 60.280 60.304 60.349 60.432
56.608 56.675 56.738 56.821 56.923 57.049 57.188 57.280 57.308 57.319 57.276 57.256 57.275 57.379 57.512 57.621 57.597 57.551 57.486 57.402 57.315 57.239 57.213 57.222 57.217 57.220 57.199 57.171 57.145 57.121 57.115 57.125 57.138 57.166 57.197 57.237 57.257 57.265 57.268 57.282 57.313 57.360 57.431 57.523 57.625 57.720 57.804 57.914 58.043 58.232 58.478 58.742 59.038 59.324 59.494 59.564 59.578 59.601 59.627 59.678 59.775 59.834 59.862 59.872 59.979 60.154 60.244 60.253 60.275 60.306 60.353 60.417
56.621 56.676 56.746 56.829 56.915 57.038 57.161 57.272 57.325 57.358 57.344 57.333 57.358 57.430 57.530 57.603 57.583 57.521 57.456 57.357 57.267 57.164 57.101 57.108 57.152 57.197 57.207 57.189 57.169 57.154 57.149 57.163 57.184 57.212 57.242 57.282 57.312 57.327 57.331 57.345 57.384 57.446 57.525 57.594 57.645 57.704 57.774 57.854 57.970 58.162 58.425 58.700 58.990 59.262 59.429 59.512 59.557 59.602 59.650 59.704 59.784 59.857 59.895 59.897 59.926 60.079 60.214 60.259 60.297 60.341 60.374 60.421
56.630 56.681 56.751 56.831 56.899 56.992 57.112 57.234 57.335 57.370 57.373 57.390 57.431 57.476 57.561 57.620 57.592 57.514 57.428 57.301 57.184 57.060 56.966 56.975 57.048 57.148 57.208 57.220 57.205 57.188 57.182 57.204 57.236 57.260 57.288 57.331 57.369 57.389 57.401 57.421 57.473 57.550 57.614 57.643 57.654 57.667 57.701 57.784 57.897 58.081 58.349 58.639 58.932 59.188 59.351 59.448 59.526 59.599 59.668 59.728 59.792 59.856 59.900 59.916 59.930 60.014 60.135 60.229 60.293 60.356 60.416 60.463
56.629 56.677 56.753 56.832 56.898 56.985 57.102 57.242 57.355 57.392 57.388 57.406 57.466 57.517 57.573 57.617 57.604 57.540 57.440 57.306 57.175 57.031 56.909 56.891 56.959 57.076 57.197 57.258 57.261 57.249 57.241 57.250 57.272 57.301 57.335 57.379 57.426 57.457 57.480 57.512 57.577 57.656 57.689 57.679 57.656 57.639 57.653 57.737 57.856 58.043 58.322 58.621 58.924 59.176 59.332 59.440 59.530 59.612 59.697 59.784 59.867 59.923 59.960 59.974 59.968 59.995 60.058 60.155 60.252 60.355 60.444 60.486
56.608 56.662 56.746 56.833 56.910 56.997 57.101 57.218 57.337 57.406 57.403 57.412 57.464 57.522 57.571 57.607 57.608 57.558 57.473 57.355 57.217 57.064 56.931 56.888 56.942 57.060 57.216 57.314 57.329 57.322 57.315 57.314 57.325 57.350 57.381 57.430 57.492 57.543 57.583 57.624 57.697 57.774 57.773 57.732 57.687 57.659 57.656 57.733 57.862 58.056 58.366 58.685 58.985 59.240 59.383 59.481 59.559 59.639 59.745 59.842 59.940 60.039 60.102 60.122 60.070 60.062 60.054 60.101 60.173 60.343 60.476 60.491
56.589 56.633 56.712 56.801 56.898 56.995 57.085 57.199 57.290 57.355 57.383 57.404 57.450 57.517 57.571 57.599 57.611 57.587 57.523 57.427 57.295 57.146 57.004 56.950 57.014 57.130 57.275 57.379 57.394 57.375 57.354 57.357 57.372 57.392 57.412 57.446 57.535 57.622 57.692 57.773 57.871 57.929 57.892 57.828 57.767 57.730 57.704 57.784 57.942 58.151 58.473 58.824 59.125 59.365 59.473 59.536 59.592 59.678 59.788 59.872 59.985 60.102 60.195 60.267 60.231 60.209 60.140 60.120 60.125 60.195 60.372 60.475
56.578 56.623 56.685 56.757 56.869 56.992 57.099 57.200 57.286 57.335 57.347 57.366 57.416 57.487 57.559 57.587 57.604 57.601 57.566 57.499 57.386 57.251 57.120 57.053 57.115 57.231 57.343 57.410 57.404 57.367 57.343 57.334 57.345 57.378 57.404 57.421 57.535 57.697 57.806 57.957 58.057 58.099 58.039 57.962 57.892 57.849 57.821 57.899 58.093 58.328 58.637 58.976 59.284 59.510 59.578 59.609 59.638 59.722 59.810 59.875 59.993 60.150 60.260 60.305 60.300 60.285 60.270 60.233 60.181 60.207 60.273 60.382
56.576 56.631 56.700 56.759 56.850 56.969 57.110 57.230 57.295 57.327 57.322 57.320 57.363 57.470 57.552 57.569 57.587 57.601 57.588 57.557 57.483 57.373 57.263 57.209 57.250 57.332 57.386 57.397 57.355 57.299 57.276 57.261 57.270 57.303 57.355 57.394 57.535 57.747 57.913 58.101 58.204 58.253 58.200 58.134 58.097 58.047 58.002 58.083 58.257 58.499 58.758 59.051 59.358 59.587 59.640 59.648 59.682 59.755 59.825 59.884 60.001 60.175 60.239 60.281 60.268 60.292 60.337 60.313 60.264 60.271 60.301 60.354
56.589 56.669 56.742 56.794 56.855 56.959 57.135 57.294 57.324 57.313 57.295 57.273 57.304 57.438 57.538 57.557 57.576 57.587 57.592 57.597 57.557 57.484 57.418 57.399 57.397 57.424 57.421 57.384 57.308 57.235 57.192 57.159 57.152 57.213 57.279 57.368 57.529 57.740 57.957 58.190 58.323 58.400 58.396 58.359 58.328 58.259 58.222 58.276 58.382 58.571 58.787 59.053 59.343 59.573 59.648 59.673 59.706 59.777 59.842 59.902 60.014 60.141 60.224 60.264 60.283 60.320 60.360 60.361 60.347 60.360 60.395 60.421
56.603 56.692 56.770 56.825 56.884 56.992 57.173 57.342 57.363 57.316 57.284 57.248 57.285 57.412 57.526 57.558 57.583 57.598 57.606 57.622 57.604 57.576 57.548 57.525 57.522 57.503 57.464 57.398 57.309 57.220 57.161 57.127 57.118 57.170 57.243 57.347 57.497 57.711 57.947 58.200 58.401 58.542 58.612 58.608 58.544 58.452 58.398 58.413 58.474 58.609 58.799 59.043 59.309 59.529 59.626 59.668 59.723 59.791 59.854 59.920 60.032 60.176 60.259 60.295 60.322 60.331 60.349 60.370 60.392 60.440 60.503 60.536
56.632 56.710 56.796 56.852 56.917 57.014 57.182 57.344 57.356 57.332 57.296 57.247 57.287 57.414 57.520 57.562 57.586 57.605 57.620 57.641 57.636 57.621 57.615 57.611 57.597 57.567 57.512 57.429 57.331 57.234 57.172 57.145 57.145 57.179 57.242 57.341 57.478 57.672 57.897 58.168 58.432 58.635 58.760 58.791 58.712 58.595 58.517 58.506 58.553 58.662 58.834 59.057 59.308 59.496 59.595 59.655 59.725 59.803 59.867 59.935 60.045 60.176 60.251 60.298 60.331 60.319 60.333 60.374 60.417 60.472 60.565 60.625
56.663 56.746 56.842 56.897 56.948 57.037 57.168 57.288 57.328 57.329 57.299 57.253 57.297 57.424 57.536 57.576 57.590 57.606 57.625 57.647 57.655 57.646 57.644 57.645 57.640 57.612 57.551 57.464 57.353 57.254 57.204 57.186 57.198 57.234 57.290 57.380 57.498 57.660 57.869 58.121 58.407 58.645 58.810 58.868 58.796 58.678 58.620 58.610 58.655 58.762 58.921 59.113 59.341 59.498 59.587 59.655 59.722 59.812 59.877 59.941 60.043 60.171 60.239 60.280 60.310 60.322 60.337 60.396 60.462 60.484 60.559 60.635
56.691 56.777 56.866 56.922 56.977 57.061 57.160 57.257 57.320 57.340 57.310 57.277 57.324 57.431 57.528 57.579 57.602 57.617 57.636 57.658 57.670 57.668 57.661 57.664 57.668 57.644 57.578 57.487 57.380 57.285 57.250 57.252 57.281 57.333 57.401 57.487 57.588 57.723 57.910 58.130 58.397 58.633 58.806 58.884 58.848 58.760 58.716 58.746 58.833 58.952 59.092 59.240 59.409 59.533 59.617 59.681 59.732 59.814 59.884 59.953 60.043 60.166 60.248 60.287 60.299 60.317 60.346 60.412 60.508 60.516 60.587 60.657
56.717 56.790 56.864 56.917 56.990 57.088 57.184 57.283 57.362 57.382 57.347 57.314 57.350 57.443 57.536 57.595 57.630 57.642 57.649 57.675 57.683 57.685 57.678 57.683 57.692 57.666 57.591 57.495 57.401 57.319 57.306 57.332 57.378 57.452 57.538 57.643 57.745 57.860 58.012 58.200 58.442 58.646 58.805 58.903 58.921 58.908 58.910 58.980 59.088 59.207 59.330 59.431 59.512 59.591 59.657 59.698 59.744 59.826 59.904 59.975 60.059 60.147 60.248 60.293 60.294 60.316 60.347 60.415 60.535 60.563 60.614 60.673
56.736 56.788 56.853 56.921 57.010 57.121 57.226 57.327 57.392 57.412 57.385 57.345 57.369 57.459 57.555 57.622 57.655 57.665 57.660 57.689 57.700 57.713 57.710 57.716 57.716 57.688 57.598 57.506 57.434 57.377 57.382 57.409 57.468 57.574 57.695 57.831 57.955 58.063 58.203 58.343 58.540 58.714 58.849 58.949 59.015 59.091 59.208 59.291 59.357 59.468 59.550 59.614 59.650 59.682 59.676 59.707 59.758 59.839 59.924 59.998 60.093 60.171 60.239 60.274 60.296 60.321 60.357 60.440 60.549 60.607 60.672 60.695
56.727 56.766 56.843 56.925 57.025 57.142 57.254 57.361 57.420 57.431 57.400 57.369 57.393 57.475 57.562 57.628 57.665 57.680 57.675 57.706 57.715 57.754 57.763 57.755 57.745 57.704 57.617 57.534 57.484 57.458 57.476 57.515 57.589 57.725 57.874 58.031 58.181 58.303 58.434 58.554 58.686 58.824 58.931 59.019 59.099 59.222 59.386 59.518 59.580 59.639 59.683 59.732 59.758 59.750 59.727 59.731 59.775 59.849 59.930 60.016 60.121 60.190 60.234 60.272 60.314 60.356 60.397 60.485 60.607 60.678 60.700 60.663
56.720 56.751 56.825 56.917 57.027 57.136 57.249 57.357 57.420 57.440 57.410 57.374 57.412 57.496 57.567 57.642 57.679 57.696 57.691 57.733 57.739 57.779 57.798 57.794 57.773 57.718 57.645 57.578 57.546 57.543 57.564 57.615 57.726 57.864 58.026 58.202 58.376 58.529 58.679 58.791 58.879 58.973 59.051 59.120 59.191 59.303 59.452 59.589 59.667 59.704 59.728 59.759 59.772 59.759 59.739 59.752 59.792 59.863 59.939 60.025 60.135 60.211 60.236 60.265 60.330 60.406 60.468 60.552 60.643 60.693 60.691 60.661
56.716 56.749 56.818 56.914 57.024 57.133 57.236 57.346 57.403 57.428 57.413 57.403 57.446 57.525 57.596 57.651 57.682 57.703 57.715 57.758 57.769 57.792 57.816 57.818 57.789 57.738 57.680 57.634 57.620 57.627 57.652 57.727 57.839 57.976 58.140 58.331 58.531 58.715 58.889 59.002 59.081 59.149 59.198 59.235 59.280 59.358 59.471 59.577 59.650 59.685 59.695 59.712 59.723 59.724 59.731 59.765 59.813 59.878 59.954 60.034 60.137 60.224 60.252 60.293 60.374 60.454 60.538 60.613 60.669 60.685 60.658 60.647
56.717 56.758 56.815 56.911 57.020 57.132 57.243 57.367 57.417 57.436 57.447 57.466 57.508 57.567 57.620 57.660 57.692 57.722 57.743 57.773 57.792 57.810 57.836 57.840 57.797 57.760 57.725 57.704 57.703 57.709 57.740 57.803 57.914 58.061 58.230 58.427 58.642 58.844 59.030 59.173 59.266 59.329 59.351 59.350 59.349 59.371 59.434 59.518 59.584 59.615 59.625 59.648 59.675 59.698 59.730 59.773 59.826 59.895 59.977 60.052 60.139 60.219 60.258 60.302 60.377 60.467 60.561 60.613 60.622 60.604 60.610 60.647
56.718 56.777 56.830 56.914 57.026 57.154 57.278 57.379 57.426 57.456 57.489 57.524 57.561 57.603 57.649 57.687 57.712 57.734 57.755 57.784 57.816 57.848 57.876 57.868 57.829 57.803 57.793 57.790 57.793 57.804 57.841 57.906 58.004 58.136 58.293 58.488 58.710 58.925 59.103 59.262 59.382 59.447 59.456 59.425 59.380 59.359 59.386 59.445 59.492 59.536 59.566 59.601 59.648 59.684 59.726 59.783 59.842 59.906 59.991 60.060 60.129 60.219 60.286 60.319 60.388 60.495 60.555 60.572 60.568 60.574 60.614 60.672
56.700 56.778 56.834 56.918 57.040 57.190 57.328 57.417 57.463 57.482 57.510 57.540 57.573 57.623 57.672 57.707 57.725 57.744 57.766 57.797 57.842 57.881 57.909 57.906 57.875 57.858 57.866 57.877 57.883 57.897 57.945 58.006 58.081 58.195 58.339 58.527 58.728 58.929 59.112 59.292 59.431 59.484 59.477 59.430 59.359 59.309 59.315 59.366 59.424 59.487 59.533 59.582 59.640 59.692 59.732 59.797 59.861 59.916 59.995 60.061 60.142 60.232 60.297 60.393 60.442 60.502 60.536 60.546 60.542 60.573 60.640 60.733
56.693 56.764 56.826 56.921 57.045 57.189 57.340 57.450 57.503 57.511 57.524 57.538 57.573 57.642 57.681 57.695 57.717 57.759 57.791 57.828 57.866 57.899 57.925 57.945 57.935 57.920 57.937 57.948 57.953 57.968 58.011 58.072 58.143 58.237 58.364 58.526 58.707 58.885 59.067 59.239 59.373 59.428 59.415 59.370 59.283 59.230 59.217 59.273 59.354 59.443 59.513 59.573 59.633 59.700 59.755 59.806 59.872 59.933 60.012 60.080 60.164 60.236 60.350 60.448 60.508 60.521 60.502 60.515 60.534 60.599 60.744 60.819
56.678 56.758 56.820 56.914 57.041 57.173 57.324 57.438 57.488 57.528 57.545 57.549 57.572 57.646 57.694 57.701 57.739 57.772 57.815 57.857 57.887 57.915 57.943 57.974 57.974 57.971 57.998 58.009 58.001 58.017 58.046 58.094 58.146 58.236 58.334 58.477 58.641 58.804 58.968 59.112 59.248 59.311 59.300 59.283 59.194 59.146 59.121 59.189 59.278 59.391 59.495 59.568 59.642 59.701 59.756 59.804 59.876 59.951 60.031 60.105 60.176 60.269 60.419 60.517 60.523 60.509 60.474 60.492 60.544 60.667 60.746 60.798
