ncols 9
nrows 13
xllcorner 0
yllcorner 0
cellsize 40
NODATA_value -9999
52.4 52.0 51.5 51.0 50.8 50.5 50.2 49.8 49.4
52.1 51.7 51.2 50.7 50.4 50.0 49.7 49.3 48.9
51.8 51.3 50.8 50.3 50.0 49.6 49.1 48.8 48.4
51.5 50.9 50.4 49.9 49.5 49.1 48.8 48.4 48.0
51.1 50.6 50.0 49.4 49.0 48.6 48.3 47.9 47.6
50.8 50.2 49.6 49.1 48.6 48.2 47.9 47.6 47.2
50.4 49.8 49.2 48.7 48.2 47.9 47.5 47.2 46.9
50.0 49.4 48.9 48.3 47.9 47.5 47.2 46.9 46.6
49.6 49.0 48.5 48.0 47.6 47.2 46.9 46.6 46.3
49.2 48.7 48.2 47.7 47.3 46.9 46.6 46.4 46.1
48.9 48.4 47.9 47.4 47.0 46.7 46.4 46.1 45.9
48.6 48.1 47.6 47.2 46.8 46.5 46.2 46.0 45.7
48.3 47.9 47.4 47.0 46.6 46.3 46.0 45.8 45.5
